; generated by PrusaSlicer 2.6.1+win64 on 2023-11-22 at 08:53:45 UTC

; 

; external perimeters extrusion width = 0.45mm
; perimeters extrusion width = 0.45mm
; infill extrusion width = 0.45mm
; solid infill extrusion width = 0.45mm
; top infill extrusion width = 0.40mm
; first layer extrusion width = 0.70mm

M104 S200 ; set temperature
;TYPE:Custom
G28 ; home all axes
G1 Z5 F5000 ; lift nozzle
M109 S200 ; set temperature and wait for it to be reached
G21 ; set units to millimeters
G90 ; use absolute coordinates
M82 ; use absolute distances for extrusion
G92 E0
; Filament gcode
M107
;LAYER_CHANGE
;Z:0.35
;HEIGHT:0.35
G1 Z.35 F7800
G1 E-2 F2400
G92 E0
G1 X44.956 Y35.753 F7800
G1 E2 F2400
;TYPE:Skirt/Brim
;WIDTH:0.7
G1 F1800
G1 X46.709 Y34.274 E2.20855
G1 X48.861 Y33.481 E2.41709
G1 X50.041 Y33.375 E2.52482
G1 X149.959 Y33.375 E11.61032
G1 X152.218 Y33.772 E11.81888
G1 X154.206 Y34.915 E12.0274
G1 X155.685 Y36.668 E12.23595
G1 X156.478 Y38.82 E12.44449
G1 X156.584 Y40 E12.55222
G1 X156.584 Y160 E23.46377
G1 X156.187 Y162.259 E23.67233
G1 X155.044 Y164.247 E23.88085
G1 X153.291 Y165.726 E24.0894
G1 X151.139 Y166.519 E24.29794
G1 X149.959 Y166.625 E24.40567
G1 X50.041 Y166.625 E33.49117
G1 X47.782 Y166.228 E33.69973
G1 X45.794 Y165.085 E33.90825
G1 X44.315 Y163.332 E34.1168
G1 X43.522 Y161.18 E34.32534
G1 X43.416 Y160 E34.43307
G1 X43.416 Y40 E45.34462
G1 X43.813 Y37.741 E45.55318
G1 X44.927 Y35.805 E45.75628
G1 E43.75628 F2400
G92 E0
G1 X148.359 Y158.4 F7800
G1 E2 F2400
;TYPE:Perimeter
;WIDTH:0.7
G1 F1800
G1 X51.641 Y158.4 E10.79452
G1 X51.641 Y41.6 E21.41509
G1 X148.359 Y41.6 E30.20961
G1 X148.359 Y158.34 E40.82472
G1 X148.984 Y159.025 F7800
G1 F1800
G1 X51.016 Y159.025 E49.7329
G1 X51.016 Y40.975 E60.46713
G1 X148.984 Y40.975 E69.37531
G1 X148.984 Y158.965 E80.10408
G1 X149.609 Y159.65 F7800
;TYPE:External perimeter
G1 F1800
G1 X50.391 Y159.65 E89.12593
G1 X50.391 Y40.35 E99.97382
G1 X149.609 Y40.35 E108.99567
G1 X149.609 Y159.59 E119.83811
G1 X149.226 Y159.535 F7800
G1 E117.83811 F2400
G92 E0
G1 X77.569 Y102.746 F7800
G1 E2 F2400
;TYPE:Perimeter
G1 F1800
G1 X77.446 Y101.428 E2.12037
G1 X77.401 Y100.048 E2.24592
G1 X77.439 Y98.684 E2.37
G1 X77.562 Y97.312 E2.49526
G1 X77.797 Y95.789 E2.63538
G1 X78.071 Y94.539 E2.75174
G1 X78.443 Y93.216 E2.8767
G1 X78.953 Y91.77 E3.01612
G1 X79.492 Y90.505 E3.14115
G1 X80.063 Y89.36 E3.25749
G1 X80.83 Y88.033 E3.39686
G1 X81.538 Y86.967 E3.51322
G1 X82.364 Y85.868 E3.63823
G1 X83.256 Y84.822 E3.76323
G1 X84.211 Y83.832 E3.88831
G1 X85.343 Y82.799 E4.02766
G1 X86.34 Y81.997 E4.14401
G1 X87.46 Y81.199 E4.26906
G1 X88.763 Y80.393 E4.40838
G1 X89.977 Y79.745 E4.53351
G1 X91.141 Y79.209 E4.65003
G1 X92.424 Y78.709 E4.77524
G1 X93.734 Y78.287 E4.90039
G1 X95.224 Y77.911 E5.04012
G1 X96.484 Y77.676 E5.15667
G1 X97.849 Y77.504 E5.28177
G1 X99.391 Y77.41 E5.42224
G1 X100.755 Y77.414 E5.54627
G1 X102.036 Y77.493 E5.66297
G1 X103.499 Y77.673 E5.797
G1 X104.855 Y77.929 E5.92248
G1 X106.154 Y78.255 E6.04426
G1 X107.556 Y78.702 E6.17807
G1 X108.839 Y79.202 E6.30328
G1 X110.056 Y79.762 E6.42509
G1 X111.352 Y80.459 E6.5589
G1 X112.519 Y81.185 E6.68387
G1 X113.64 Y81.981 E6.80889
G1 X114.711 Y82.845 E6.93401
G1 X115.701 Y83.746 E7.05573
G1 X116.726 Y84.803 E7.18961
G1 X117.62 Y85.85 E7.3148
G1 X118.427 Y86.918 E7.43652
G1 X119.19 Y88.064 E7.56171
G1 X119.88 Y89.253 E7.68671
G1 X120.497 Y90.483 E7.81184
G1 X121.038 Y91.749 E7.93703
G1 X121.539 Y93.166 E8.07369
G1 X121.902 Y94.43 E8.19327
G1 X122.2 Y95.774 E8.31845
G1 X122.424 Y97.195 E8.44926
G1 X122.56 Y98.667 E8.58368
G1 X122.599 Y100.047 E8.70921
G1 X122.555 Y101.41 E8.83321
G1 X122.426 Y102.784 E8.9587
G1 X122.221 Y104.114 E9.08106
G1 X121.906 Y105.553 E9.21501
G1 X121.527 Y106.877 E9.34024
G1 X121.082 Y108.14 E9.462
G1 X120.481 Y109.548 E9.6012
G1 X119.892 Y110.724 E9.7208
G1 X119.203 Y111.915 E9.84591
G1 X118.463 Y113.031 E9.96767
G1 X117.636 Y114.132 E10.09288
G1 X116.636 Y115.294 E10.23228
G1 X115.676 Y116.278 E10.35728
G1 X114.657 Y117.201 E10.4823
G1 X113.66 Y118.003 E10.59865
G1 X112.54 Y118.801 E10.7237
G1 X111.237 Y119.607 E10.86302
G1 X110.108 Y120.213 E10.97953
G1 X108.859 Y120.791 E11.10467
G1 X107.486 Y121.323 E11.23856
G1 X106.173 Y121.739 E11.3638
G1 X104.871 Y122.068 E11.48591
G1 X103.361 Y122.347 E11.62554
G1 X102.056 Y122.505 E11.74507
G1 X100.677 Y122.589 E11.87069
G1 X99.341 Y122.589 E11.99217
G1 X97.964 Y122.507 E12.1176
G1 X96.501 Y122.327 E12.25163
G1 X95.24 Y122.092 E12.36827
G1 X93.905 Y121.761 E12.49334
G1 X92.388 Y121.277 E12.63813
G1 X91.161 Y120.798 E12.7579
G1 X89.944 Y120.238 E12.87971
G1 X88.648 Y119.541 E13.01352
G1 X87.481 Y118.815 E13.13849
G1 X86.36 Y118.019 E13.26351
G1 X85.289 Y117.155 E13.38863
G1 X84.299 Y116.254 E13.51035
G1 X83.274 Y115.197 E13.64423
G1 X82.38 Y114.15 E13.76942
G1 X81.573 Y113.082 E13.89114
G1 X80.81 Y111.936 E14.01633
G1 X80.12 Y110.747 E14.14133
G1 X79.503 Y109.517 E14.26646
G1 X78.962 Y108.251 E14.39165
G1 X78.461 Y106.834 E14.52831
G1 X78.098 Y105.57 E14.64789
G1 X77.8 Y104.226 E14.77307
G1 X77.576 Y102.806 E14.90379
G1 X78.188 Y102.67 F7800
G1 F1800
G1 X78.068 Y101.371 E15.02241
G1 X78.026 Y100.029 E15.1445
G1 X78.064 Y98.703 E15.26512
G1 X78.184 Y97.369 E15.38691
G1 X78.407 Y95.923 E15.51995
G1 X78.681 Y94.673 E15.63631
G1 X79.045 Y93.386 E15.75793
G1 X79.528 Y92.014 E15.89019
G1 X80.028 Y90.836 E16.00655
G1 X80.622 Y89.638 E16.12814
G1 X81.351 Y88.379 E16.26043
G1 X82.058 Y87.312 E16.37682
G1 X82.863 Y86.245 E16.49836
G1 X83.731 Y85.228 E16.61994
G1 X84.66 Y84.267 E16.74148
G1 X85.734 Y83.286 E16.87375
G1 X86.732 Y82.484 E16.99017
G1 X87.821 Y81.709 E17.11171
G1 X89.059 Y80.943 E17.24409
G1 X90.187 Y80.338 E17.36048
G1 X91.403 Y79.777 E17.48225
G1 X92.65 Y79.291 E17.60395
G1 X93.924 Y78.883 E17.72559
G1 X95.339 Y78.526 E17.85829
G1 X96.598 Y78.29 E17.97476
G1 X97.926 Y78.124 E18.09645
G1 X99.391 Y78.034 E18.22991
G1 X100.717 Y78.037 E18.35048
G1 X101.997 Y78.116 E18.46709
G1 X103.385 Y78.288 E18.59427
G1 X104.703 Y78.535 E18.7162
G1 X106.002 Y78.861 E18.83798
G1 X107.277 Y79.265 E18.9596
G1 X108.524 Y79.746 E19.08113
G1 X109.794 Y80.329 E19.2082
G1 X111.022 Y80.99 E19.33501
G1 X112.158 Y81.695 E19.45658
G1 X113.248 Y82.469 E19.57814
G1 X114.29 Y83.307 E19.69973
G1 X115.281 Y84.208 E19.82152
G1 X116.252 Y85.21 E19.94839
G1 X117.122 Y86.226 E20.07002
G1 X117.929 Y87.295 E20.19181
G1 X118.669 Y88.409 E20.31342
G1 X119.339 Y89.566 E20.43499
G1 X119.938 Y90.762 E20.55662
G1 X120.463 Y91.993 E20.67831
G1 X120.95 Y93.373 E20.81138
G1 X121.301 Y94.601 E20.92751
G1 X121.59 Y95.908 E21.04923
G1 X121.807 Y97.291 E21.17652
G1 X121.935 Y98.686 E21.3039
G1 X121.974 Y100.028 E21.42598
G1 X121.932 Y101.354 E21.54661
G1 X121.809 Y102.689 E21.66852
G1 X121.604 Y104.019 E21.79088
G1 X121.305 Y105.383 E21.91785
G1 X120.938 Y106.669 E22.03945
G1 X120.493 Y107.932 E22.16121
G1 X119.922 Y109.27 E22.29349
G1 X119.351 Y110.412 E22.40959
G1 X118.682 Y111.57 E22.5312
G1 X117.942 Y112.686 E22.65296
G1 X117.137 Y113.755 E22.77464
G1 X116.188 Y114.859 E22.90702
G1 X115.255 Y115.816 E23.02855
G1 X114.266 Y116.714 E23.15002
G1 X113.268 Y117.516 E23.26644
G1 X112.179 Y118.291 E23.38798
G1 X110.941 Y119.057 E23.52036
G1 X109.761 Y119.687 E23.64199
G1 X108.597 Y120.223 E23.75851
G1 X107.296 Y120.728 E23.88541
G1 X106.02 Y121.133 E24.00714
G1 X104.718 Y121.462 E24.12925
G1 X103.284 Y121.726 E24.26183
G1 X102.017 Y121.882 E24.37791
G1 X100.676 Y121.964 E24.50007
G1 X99.341 Y121.965 E24.62146
G1 X98.003 Y121.884 E24.74335
G1 X96.615 Y121.712 E24.87053
G1 X95.354 Y121.477 E24.98717
G1 X94.057 Y121.155 E25.10869
G1 X92.613 Y120.694 E25.24652
G1 X91.422 Y120.231 E25.36271
G1 X90.206 Y119.671 E25.48444
G1 X88.978 Y119.01 E25.61125
G1 X87.842 Y118.305 E25.73282
G1 X86.752 Y117.531 E25.85438
G1 X85.71 Y116.693 E25.97597
G1 X84.719 Y115.792 E26.09776
G1 X83.748 Y114.79 E26.22463
G1 X82.878 Y113.774 E26.34626
G1 X82.071 Y112.705 E26.46805
G1 X81.301 Y111.542 E26.59488
G1 X80.661 Y110.434 E26.71123
G1 X80.062 Y109.238 E26.83286
G1 X79.515 Y107.951 E26.96002
G1 X79.05 Y106.627 E27.08762
G1 X78.699 Y105.399 E27.20375
G1 X78.41 Y104.092 E27.32547
G1 X78.196 Y102.729 E27.45093
G1 X78.808 Y102.587 F7800
;TYPE:External perimeter
G1 F1800
G1 X78.691 Y101.314 E27.56717
G1 X78.65 Y100.01 E27.6858
G1 X78.689 Y98.722 E27.80297
G1 X78.807 Y97.426 E27.9213
G1 X79.018 Y96.057 E28.04725
G1 X79.291 Y94.807 E28.16359
G1 X79.646 Y93.557 E28.28175
G1 X80.104 Y92.258 E28.40699
G1 X80.611 Y91.062 E28.52511
G1 X81.181 Y89.917 E28.64141
G1 X81.871 Y88.724 E28.76673
G1 X82.59 Y87.643 E28.88478
G1 X83.373 Y86.607 E29.00286
G1 X84.206 Y85.635 E29.11926
G1 X85.109 Y84.701 E29.23739
G1 X86.126 Y83.773 E29.36258
G1 X87.123 Y82.97 E29.47898
G1 X88.182 Y82.219 E29.59703
G1 X89.354 Y81.494 E29.72234
G1 X90.483 Y80.889 E29.83881
G1 X91.664 Y80.345 E29.95704
G1 X92.876 Y79.874 E30.07528
G1 X94.114 Y79.478 E30.19347
G1 X95.454 Y79.14 E30.31913
G1 X96.716 Y78.904 E30.43587
G1 X98.003 Y78.744 E30.5538
G1 X99.39 Y78.659 E30.68016
G1 X100.678 Y78.661 E30.79728
G1 X101.959 Y78.74 E30.91398
G1 X103.252 Y78.899 E31.03244
G1 X104.532 Y79.137 E31.15082
G1 X105.868 Y79.472 E31.27606
G1 X107.087 Y79.861 E31.39241
G1 X108.299 Y80.329 E31.51055
G1 X109.55 Y80.905 E31.63578
G1 X110.677 Y81.512 E31.75218
G1 X111.781 Y82.195 E31.87022
G1 X112.842 Y82.944 E31.98831
G1 X113.855 Y83.757 E32.10642
G1 X114.874 Y84.684 E32.23168
G1 X115.765 Y85.603 E32.34807
G1 X116.611 Y86.588 E32.46614
G1 X117.442 Y87.687 E32.59142
G1 X118.148 Y88.754 E32.70776
G1 X118.798 Y89.878 E32.82582
G1 X119.379 Y91.041 E32.94403
G1 X119.888 Y92.238 E33.0623
G1 X120.36 Y93.58 E33.19165
G1 X120.704 Y94.79 E33.30603
G1 X120.98 Y96.042 E33.42261
G1 X121.189 Y97.387 E33.54638
G1 X121.309 Y98.686 E33.665
G1 X121.35 Y99.99 E33.78363
G1 X121.311 Y101.278 E33.9008
G1 X121.193 Y102.574 E34.01913
G1 X120.982 Y103.943 E34.14508
G1 X120.709 Y105.193 E34.26142
G1 X120.354 Y106.443 E34.37958
G1 X119.896 Y107.743 E34.50491
G1 X119.37 Y108.974 E34.62663
G1 X118.819 Y110.083 E34.73923
G1 X118.16 Y111.225 E34.85912
G1 X117.421 Y112.341 E34.98083
G1 X116.638 Y113.378 E35.09898
G1 X115.74 Y114.423 E35.22427
G1 X114.835 Y115.354 E35.34233
G1 X113.874 Y116.227 E35.46039
G1 X112.877 Y117.03 E35.57679
G1 X111.818 Y117.781 E35.69484
G1 X110.646 Y118.506 E35.82015
G1 X109.517 Y119.111 E35.93662
G1 X108.336 Y119.655 E36.05485
G1 X107.106 Y120.132 E36.17481
G1 X105.867 Y120.527 E36.29306
G1 X104.566 Y120.856 E36.41508
G1 X103.207 Y121.106 E36.54073
G1 X101.978 Y121.258 E36.65333
G1 X100.676 Y121.339 E36.77195
G1 X99.341 Y121.34 E36.89334
G1 X98.041 Y121.26 E37.01177
G1 X96.73 Y121.098 E37.13189
G1 X95.468 Y120.863 E37.24862
G1 X94.208 Y120.549 E37.3667
G1 X92.839 Y120.112 E37.49737
G1 X91.683 Y119.663 E37.61013
G1 X90.467 Y119.103 E37.73186
G1 X89.307 Y118.479 E37.85163
G1 X88.203 Y117.794 E37.96977
G1 X87.143 Y117.044 E38.08784
G1 X86.13 Y116.231 E38.20595
G1 X85.14 Y115.33 E38.32767
G1 X84.222 Y114.383 E38.4476
G1 X83.377 Y113.397 E38.56568
G1 X82.57 Y112.329 E38.6874
G1 X81.842 Y111.23 E38.80727
G1 X81.202 Y110.122 E38.92362
G1 X80.621 Y108.959 E39.04183
G1 X80.105 Y107.744 E39.16186
G1 X79.64 Y106.42 E39.28946
G1 X79.3 Y105.228 E39.40217
G1 X79.02 Y103.958 E39.52042
G1 X78.816 Y102.647 E39.64106
G1 X78.44 Y102.431 F7800
G1 E37.64106 F2400
G92 E0
G1 X146.904 Y41.787 F7800
G1 E2 F2400
;TYPE:Solid infill
;WIDTH:0.702355
G1 F1800
G1 X147.891 Y42.774 E2.1274
G1 X147.891 Y43.661 E2.20836
G1 X146.298 Y42.068 E2.41398
G1 X145.411 Y42.068 E2.49494
G1 X147.891 Y44.548 E2.81505
G1 X147.891 Y45.435 E2.89601
G1 X144.524 Y42.068 E3.33062
G1 X143.637 Y42.068 E3.41158
G1 X147.891 Y46.322 E3.96068
G1 X147.891 Y47.209 E4.04164
G1 X142.749 Y42.068 E4.7053
G1 X141.862 Y42.068 E4.78626
G1 X147.891 Y48.097 E5.56447
G1 X147.891 Y48.984 E5.64543
G1 X140.975 Y42.068 E6.53814
G1 X140.088 Y42.068 E6.6191
G1 X147.891 Y49.871 E7.6263
G1 X147.891 Y50.758 E7.70726
G1 X139.201 Y42.068 E8.82895
G1 X138.314 Y42.068 E8.90991
G1 X147.891 Y51.645 E10.14609
G1 X147.891 Y52.532 E10.22705
G1 X137.427 Y42.068 E11.57773
G1 X136.54 Y42.068 E11.65869
G1 X147.891 Y53.419 E13.12386
G1 X147.891 Y54.306 E13.20482
G1 X135.653 Y42.068 E14.78448
G1 X134.766 Y42.068 E14.86544
G1 X147.891 Y55.193 E16.55959
G1 X147.891 Y56.08 E16.64055
G1 X133.879 Y42.068 E18.4492
G1 X132.992 Y42.068 E18.53016
G1 X147.891 Y56.967 E20.4533
G1 X147.891 Y57.854 E20.53426
G1 X132.105 Y42.068 E22.57189
G1 X131.218 Y42.068 E22.65285
G1 X147.891 Y58.741 E24.80497
G1 X147.891 Y59.628 E24.88593
G1 X130.331 Y42.068 E27.15255
G1 X129.444 Y42.068 E27.23351
G1 X147.891 Y60.515 E29.61462
G1 X147.891 Y61.402 E29.69558
G1 X128.557 Y42.068 E32.19118
G1 X127.67 Y42.068 E32.27214
G1 X147.891 Y62.289 E34.88223
G1 X147.891 Y63.177 E34.96328
G1 X126.782 Y42.068 E37.688
G1 X125.895 Y42.068 E37.76896
G1 X147.891 Y64.064 E40.60817
G1 X147.891 Y64.951 E40.68913
G1 X125.008 Y42.068 E43.64283
G1 X124.121 Y42.068 E43.72379
G1 X147.891 Y65.838 E46.79198
G1 X147.891 Y66.725 E46.87294
G1 X123.234 Y42.068 E50.05563
G1 X122.347 Y42.068 E50.13659
G1 X147.891 Y67.612 E53.43377
G1 X147.891 Y68.499 E53.51473
G1 X121.46 Y42.068 E56.9264
G1 X120.573 Y42.068 E57.00736
G1 X147.891 Y69.386 E60.53352
G1 X147.891 Y70.273 E60.61448
G1 X119.686 Y42.068 E64.25514
G1 X118.799 Y42.068 E64.3361
G1 X147.891 Y71.16 E68.09125
G1 X147.891 Y72.047 E68.17221
G1 X117.912 Y42.068 E72.04185
G1 X117.025 Y42.068 E72.12281
G1 X147.891 Y72.934 E76.10694
G1 X147.891 Y73.821 E76.1879
G1 X116.138 Y42.068 E80.28653
G1 X115.251 Y42.068 E80.36749
G1 X147.891 Y74.708 E84.58061
G1 X147.891 Y75.595 E84.66157
G1 X114.364 Y42.068 E88.98918
G1 X113.477 Y42.068 E89.07014
G1 X147.891 Y76.482 E93.51224
G1 X147.891 Y77.369 E93.5932
G1 X112.59 Y42.068 E98.1498
G1 X111.702 Y42.068 E98.23085
G1 X147.891 Y78.256 E102.902
G1 X147.891 Y79.144 E102.98305
G1 X110.815 Y42.068 E107.76876
G1 X109.928 Y42.068 E107.84972
G1 X147.891 Y80.031 E112.74992
G1 X147.891 Y80.918 E112.83088
G1 X109.041 Y42.068 E117.84558
G1 X108.154 Y42.068 E117.92654
G1 X147.891 Y81.805 E123.05573
G1 X147.891 Y82.692 E123.13669
G1 X107.267 Y42.068 E128.38037
G1 X106.38 Y42.068 E128.46133
G1 X147.891 Y83.579 E133.8195
G1 X147.891 Y84.466 E133.90046
G1 X105.493 Y42.068 E139.37313
G1 X104.606 Y42.068 E139.45409
G1 X147.891 Y85.353 E145.04125
G1 X147.891 Y86.24 E145.12221
G1 X103.719 Y42.068 E150.82386
G1 X102.832 Y42.068 E150.90482
G1 X147.891 Y87.127 E156.72096
G1 X147.891 Y88.014 E156.80192
G1 X101.945 Y42.068 E162.73256
G1 X101.058 Y42.068 E162.81352
G1 X147.891 Y88.901 E168.85865
G1 X147.891 Y89.788 E168.93961
G1 X100.171 Y42.068 E175.09923
G1 X99.284 Y42.068 E175.18019
G1 X147.891 Y90.675 E181.4543
G1 X147.891 Y91.562 E181.53526
G1 X98.397 Y42.068 E187.92387
G1 X97.51 Y42.068 E188.00483
G1 X147.891 Y92.449 E194.50793
G1 X147.891 Y93.336 E194.58889
G1 X96.623 Y42.068 E201.20648
G1 X95.735 Y42.068 E201.28753
G1 X147.891 Y94.224 E208.01974
G1 X147.891 Y95.111 E208.1007
G1 X94.848 Y42.068 E214.94741
G1 X93.961 Y42.068 E215.02837
G1 X147.891 Y95.998 E221.98957
G1 X147.891 Y96.885 E222.07053
G1 X93.074 Y42.068 E229.14622
G1 X92.187 Y42.068 E229.22718
G1 X147.891 Y97.772 E236.41736
G1 X147.891 Y98.659 E236.49832
G1 X91.3 Y42.068 E243.803
G1 X90.413 Y42.068 E243.88396
G1 X147.891 Y99.546 E251.30313
G1 X147.891 Y100.433 E251.38409
G1 X89.526 Y42.068 E258.91775
G1 X88.639 Y42.068 E258.99871
G1 X147.891 Y101.32 E266.64686
G1 X147.891 Y102.207 E266.72782
G1 X87.752 Y42.068 E274.49047
G1 X86.865 Y42.068 E274.57143
G1 X147.891 Y103.094 E282.44857
G1 X147.891 Y103.981 E282.52953
G1 X85.978 Y42.068 E290.52116
G1 X85.091 Y42.068 E290.60212
G1 X147.891 Y104.868 E298.70824
G1 X147.891 Y105.755 E298.7892
G1 X84.204 Y42.068 E307.00982
G1 X83.317 Y42.068 E307.09078
G1 X147.891 Y106.642 E315.42589
G1 X147.891 Y107.529 E315.50685
G1 X82.43 Y42.068 E323.95645
G1 X81.543 Y42.068 E324.03741
G1 X147.891 Y108.416 E332.6015
G1 X147.891 Y109.303 E332.68246
G1 X80.655 Y42.068 E341.36111
G1 X79.768 Y42.068 E341.44207
G1 X147.891 Y110.191 E350.23528
G1 X147.891 Y111.078 E350.31624
G1 X78.881 Y42.068 E359.22394
