; generated by PrusaSlicer 2.6.1+win64 on 2023-11-21 at 13:37:26 UTC

; 

; external perimeters extrusion width = 0.45mm
; perimeters extrusion width = 0.45mm
; infill extrusion width = 0.45mm
; solid infill extrusion width = 0.45mm
; top infill extrusion width = 0.40mm
; first layer extrusion width = 0.70mm

M104 S200 ; set temperature
;TYPE:Custom
G28 ; home all axes
G1 Z5 F5000 ; lift nozzle
M109 S200 ; set temperature and wait for it to be reached
G21 ; set units to millimeters
G90 ; use absolute coordinates
M82 ; use absolute distances for extrusion
G92 E0
; Filament gcode
M107
;LAYER_CHANGE
;Z:0.35
;HEIGHT:0.35
G1 Z.35 F7800
G1 E-2 F2400
G92 E0
G1 X84.89 Y80.323 F7800
G1 E2 F2400
;TYPE:Skirt/Brim
;WIDTH:0.7
G1 F1800
G1 X86.643 Y78.844 E2.20855
G1 X88.795 Y78.051 E2.41709
G1 X89.974 Y77.945 E2.52473
G1 X110.974 Y77.945 E4.43425
G1 X113.233 Y78.342 E4.64281
G1 X115.221 Y79.485 E4.85133
G1 X116.7 Y81.238 E5.05988
G1 X117.493 Y83.39 E5.26842
G1 X117.599 Y84.57 E5.37615
G1 X117.599 Y97.27 E6.53096
G1 X117.202 Y99.529 E6.73952
G1 X116.059 Y101.517 E6.94804
G1 X114.306 Y102.996 E7.15659
G1 X112.154 Y103.789 E7.36513
G1 X110.974 Y103.895 E7.47286
G1 X89.974 Y103.895 E9.38238
G1 X87.715 Y103.498 E9.59094
G1 X85.727 Y102.354 E9.7995
G1 X84.248 Y100.602 E10.00798
G1 X83.455 Y98.45 E10.21652
G1 X83.349 Y97.27 E10.32425
G1 X83.349 Y84.57 E11.47906
G1 X83.746 Y82.311 E11.68762
G1 X84.86 Y80.375 E11.89072
G1 E9.89072 F2400
G92 E0
G1 X104.163 Y86.17 F7800
G1 E2 F2400
;TYPE:Perimeter
;WIDTH:0.7
G1 F1800
G1 X109.375 Y86.169 E2.47392
G1 X109.375 Y87.409 E2.58667
G1 X109.375 Y89.672 E2.79244
;WIDTH:0.737413
G1 X109.356 Y90.031 E2.82709
;WIDTH:0.774827
G1 X109.337 Y90.391 E2.8638
G1 X109.348 Y90.92 E2.91767
;WIDTH:0.782469
G1 X109.333 Y91.568 E2.98439
G1 X109.354 Y91.839 E3.01237
;WIDTH:0.741234
G1 X109.375 Y92.11 E3.03872
;WIDTH:0.7
G1 X109.375 Y95.67 E3.36243
G1 X91.574 Y95.67 E4.98107
G1 X91.574 Y92.578 E5.26222
;WIDTH:0.729057
G1 X91.589 Y91.847 E5.33179
;WIDTH:0.757801
G1 X91.603 Y91.118 E5.40422
;WIDTH:0.772322
G1 X91.61 Y90.422 E5.47484
G1 X91.592 Y90.076 E5.50999
;WIDTH:0.736161
G1 X91.574 Y89.73 E5.54332
;WIDTH:0.7
G1 X91.574 Y86.17 E5.86703
G1 X104.103 Y86.17 E7.00629
G1 E5.00629 F2400
G92 E0
G1 X90.949 Y96.295 F7800
G1 E2 F2400
G1 F1800
G1 X90.949 Y85.545 E2.97749
G1 X109.999 Y85.545 E4.7097
G1 X109.999 Y96.295 E5.68719
G1 X91.009 Y96.295 E7.41394
G1 X90.324 Y96.92 F7800
;TYPE:External perimeter
G1 F1800
G1 X90.324 Y84.92 E8.50509
G1 X110.624 Y84.92 E10.35096
G1 X110.624 Y96.92 E11.44211
G1 X90.384 Y96.92 E13.28252
G1 X90.46 Y96.543 F7800
G1 E11.28252 F2400
G92 E0
G1 X103.675 Y88.329 F7800
G1 E2 F2400
;TYPE:Perimeter
G1 F1800
G1 X103.811 Y88.226 E2.01551
G1 X104.37 Y87.952 E2.07212
G1 X104.876 Y87.807 E2.11998
G1 X105.773 Y87.78 E2.20158
G1 X106.231 Y87.845 E2.24364
G1 X106.81 Y88.049 E2.29946
G1 X107.338 Y88.36 E2.35518
G1 X107.796 Y88.767 E2.41089
G1 X108.168 Y89.257 E2.46683
G1 X108.442 Y89.816 E2.52344
;WIDTH:0.737413
G1 X108.54 Y90.121 E2.55431
;WIDTH:0.774827
G1 X108.639 Y90.427 E2.58706
G1 X108.665 Y91.074 E2.65299
;WIDTH:0.782469
G1 X108.631 Y91.507 E2.6977
G1 X108.488 Y91.881 E2.73891
;WIDTH:0.741234
G1 X108.345 Y92.256 E2.77781
;WIDTH:0.7
G1 X108.034 Y92.784 E2.83353
G1 X107.627 Y93.242 E2.88924
G1 X107.137 Y93.614 E2.94518
G1 X106.578 Y93.887 E3.00175
G1 X106.073 Y94.032 E3.04952
G1 X105.474 Y94.09 E3.10424
G1 X104.717 Y93.994 E3.17362
G1 X104.138 Y93.79 E3.22944
G1 X103.61 Y93.479 E3.28516
G1 X103.152 Y93.072 E3.34087
G1 X102.78 Y92.583 E3.39674
G1 X102.507 Y92.024 E3.45331
G1 X102.342 Y91.369 E3.51473
G1 X102.31 Y90.784 E3.568
G1 X102.4 Y90.162 E3.62515
G1 X102.591 Y89.608 E3.67843
G1 X102.915 Y89.056 E3.73663
G1 X103.322 Y88.598 E3.79234
G1 X103.628 Y88.365 E3.82731
G1 X104.041 Y88.829 F7800
G1 F1800
G1 X104.113 Y88.773 E3.8356
G1 X104.558 Y88.548 E3.88094
G1 X104.984 Y88.423 E3.92131
G1 X105.777 Y88.405 E3.99344
G1 X106.351 Y88.533 E4.04692
G1 X106.794 Y88.747 E4.09166
G1 X107.188 Y89.042 E4.13642
G1 X107.518 Y89.407 E4.18116
G1 X107.773 Y89.834 E4.22638
G1 X107.942 Y90.309 E4.27222
G1 X108.014 Y90.823 E4.31941
G1 X107.975 Y91.391 E4.37118
G1 X107.792 Y91.964 E4.42588
G1 X107.547 Y92.391 E4.47064
G1 X107.225 Y92.763 E4.51538
G1 X106.836 Y93.066 E4.56022
G1 X106.39 Y93.291 E4.60564
G1 X105.899 Y93.426 E4.65194
G1 X105.384 Y93.46 E4.69887
G1 X104.896 Y93.395 E4.74364
G1 X104.43 Y93.237 E4.78838
G1 X104.003 Y92.993 E4.8331
G1 X103.631 Y92.67 E4.8779
G1 X103.328 Y92.281 E4.92274
G1 X103.078 Y91.758 E4.97545
G1 X102.964 Y91.305 E5.01793
G1 X102.936 Y90.808 E5.06319
G1 X103.02 Y90.271 E5.11261
G1 X103.157 Y89.875 E5.15071
G1 X103.401 Y89.448 E5.19543
G1 X103.724 Y89.076 E5.24023
G1 X103.993 Y88.866 E5.27126
G1 X104.401 Y89.331 F7800
;TYPE:External perimeter
G1 F1800
G1 X104.746 Y89.144 E5.30694
G1 X105.144 Y89.033 E5.34451
G1 X105.783 Y89.029 E5.40262
G1 X106.228 Y89.155 E5.44467
G1 X106.572 Y89.348 E5.48054
G1 X106.839 Y89.571 E5.51217
G1 X107.074 Y89.859 E5.54597
G1 X107.25 Y90.192 E5.58022
G1 X107.359 Y90.559 E5.61503
G1 X107.393 Y90.95 E5.65072
G1 X107.351 Y91.319 E5.68449
G1 X107.239 Y91.673 E5.71825
G1 X107.061 Y91.999 E5.75202
G1 X106.823 Y92.285 E5.78585
G1 X106.535 Y92.519 E5.81959
G1 X106.202 Y92.695 E5.85384
G1 X105.835 Y92.804 E5.88865
G1 X105.444 Y92.838 E5.92434
G1 X105.075 Y92.797 E5.9581
G1 X104.721 Y92.685 E5.99186
G1 X104.395 Y92.506 E6.02568
G1 X104.109 Y92.269 E6.05945
G1 X103.875 Y91.98 E6.09326
G1 X103.674 Y91.57 E6.13478
G1 X103.586 Y91.241 E6.16575
G1 X103.558 Y90.869 E6.19967
G1 X103.618 Y90.451 E6.23807
G1 X103.709 Y90.166 E6.26527
G1 X103.888 Y89.84 E6.29909
G1 X104.125 Y89.555 E6.33279
G1 X104.355 Y89.369 E6.35969
G1 X104.375 Y88.939 F7800
G1 E4.35969 F2400
G92 E0
G1 X98.568 Y90.3 F7800
G1 E2 F2400
;TYPE:Perimeter
G1 F1800
G1 X98.602 Y90.43 E2.01222
G1 X98.638 Y91.056 E2.06924
G1 X98.549 Y91.677 E2.12628
G1 X98.357 Y92.232 E2.17968
G1 X98.034 Y92.784 E2.23783
G1 X97.627 Y93.242 E2.29354
G1 X97.137 Y93.614 E2.34948
G1 X96.578 Y93.887 E2.40605
G1 X96.073 Y94.032 E2.45382
G1 X95.474 Y94.09 E2.50854
G1 X94.717 Y93.994 E2.57792
G1 X94.138 Y93.79 E2.63374
G1 X93.61 Y93.479 E2.68946
G1 X93.152 Y93.072 E2.74517
G1 X92.78 Y92.583 E2.80104
G1 X92.507 Y92.024 E2.85761
;WIDTH:0.742197
G1 X92.414 Y91.775 E2.88341
;WIDTH:0.784395
G1 X92.32 Y91.526 E2.91088
G1 X92.284 Y91.083 E2.95675
;WIDTH:0.772322
G1 X92.306 Y90.455 E3.0205
G1 X92.398 Y90.16 E3.05185
;WIDTH:0.736161
G1 X92.489 Y89.864 E3.08164
;WIDTH:0.7
G1 X92.749 Y89.309 E3.13737
G1 X93.11 Y88.814 E3.19308
G1 X93.56 Y88.398 E3.2488
G1 X94.087 Y88.074 E3.30505
G1 X94.676 Y87.856 E3.36216
G1 X95.136 Y87.784 E3.4045
G1 X95.783 Y87.78 E3.46333
G1 X96.231 Y87.845 E3.50449
G1 X96.81 Y88.049 E3.56031
G1 X97.338 Y88.36 E3.61603
G1 X97.796 Y88.767 E3.67174
G1 X98.168 Y89.257 E3.72768
G1 X98.442 Y89.816 E3.78429
G1 X98.553 Y90.242 E3.82432
G1 X97.98 Y90.529 F7800
G1 F1800
G1 X98.019 Y90.92 E3.86005
G1 X97.95 Y91.498 E3.91298
G1 X97.792 Y91.964 E3.95772
G1 X97.547 Y92.391 E4.00248
G1 X97.225 Y92.763 E4.04722
G1 X96.836 Y93.066 E4.09206
G1 X96.39 Y93.291 E4.13748
G1 X95.899 Y93.426 E4.18378
G1 X95.384 Y93.46 E4.23071
G1 X94.896 Y93.395 E4.27548
G1 X94.43 Y93.237 E4.32022
G1 X93.985 Y92.978 E4.36704
G1 X93.631 Y92.67 E4.40971
G1 X93.328 Y92.281 E4.45455
G1 X93.103 Y91.836 E4.49989
G1 X92.968 Y91.345 E4.54619
G1 X92.934 Y91.016 E4.57627
G1 X92.964 Y90.519 E4.62154
G1 X93.088 Y90.043 E4.66627
G1 X93.302 Y89.6 E4.71101
G1 X93.597 Y89.206 E4.75577
G1 X93.978 Y88.863 E4.80239
G1 X94.558 Y88.548 E4.86241
G1 X94.984 Y88.423 E4.90278
G1 X95.777 Y88.405 E4.97491
G1 X96.351 Y88.533 E5.02839
G1 X96.794 Y88.747 E5.07313
G1 X97.188 Y89.042 E5.11789
G1 X97.518 Y89.407 E5.16263
G1 X97.792 Y89.87 E5.21155
G1 X97.974 Y90.47 E5.26856
G1 X97.359 Y90.584 F7800
;TYPE:External perimeter
G1 F1800
G1 X97.391 Y90.971 E5.30387
G1 X97.33 Y91.389 E5.34228
G1 X97.239 Y91.673 E5.3694
G1 X97.061 Y91.999 E5.40317
G1 X96.823 Y92.285 E5.437
G1 X96.535 Y92.519 E5.47074
G1 X96.202 Y92.695 E5.50499
G1 X95.835 Y92.804 E5.5398
G1 X95.444 Y92.838 E5.57549
G1 X95.075 Y92.797 E5.60925
G1 X94.721 Y92.685 E5.64301
G1 X94.377 Y92.492 E5.67888
G1 X94.109 Y92.269 E5.71058
G1 X93.875 Y91.98 E5.74439
G1 X93.699 Y91.648 E5.77856
G1 X93.59 Y91.281 E5.81337
G1 X93.556 Y90.952 E5.84345
G1 X93.597 Y90.52 E5.88291
G1 X93.709 Y90.166 E5.91667
G1 X93.888 Y89.84 E5.95049
G1 X94.125 Y89.555 E5.98419
G1 X94.414 Y89.32 E6.01806
G1 X94.746 Y89.144 E6.05223
G1 X95.144 Y89.033 E6.0898
G1 X95.783 Y89.029 E6.14791
G1 X96.228 Y89.155 E6.18996
G1 X96.554 Y89.333 E6.22373
G1 X96.839 Y89.571 E6.25749
G1 X97.074 Y89.859 E6.29129
G1 X97.274 Y90.27 E6.33285
G1 X97.344 Y90.526 E6.35698
G1 X97.724 Y90.715 F7800
G1 E4.35698 F2400
G92 E0
G1 X109.187 Y92.964 F7800
G1 E2 F2400
;TYPE:Solid infill
;WIDTH:0.70387
G1 F1800
G1 X108.738 Y92.515 E2.0581
G1 X108.611 Y92.756 E2.08302
G1 X108.405 Y93.07 E2.11738
G1 X108.906 Y93.572 E2.18227
G1 X108.906 Y94.461 E2.26361
G1 X107.987 Y93.542 E2.38252
G1 X107.65 Y93.833 E2.42326
G1 X107.494 Y93.938 E2.44046
G1 X108.757 Y95.201 E2.60388
G1 X107.868 Y95.201 E2.68522
G1 X106.917 Y94.25 E2.80827
G1 X106.727 Y94.332 E2.8272
G1 X106.244 Y94.466 E2.87306
G1 X106.979 Y95.201 E2.96816
G1 X106.09 Y95.201 E3.0495
G1 X105.141 Y94.253 E3.17223
G1 E1.17223 F2400
G92 E0
G1 X109.187 Y87.628 F7800
G1 E2 F2400
G1 F1800
G1 X108.197 Y86.638 E2.1281
G1 X107.308 Y86.638 E2.20944
G1 X108.906 Y88.236 E2.41621
G1 X108.906 Y89.126 E2.49764
G1 X106.418 Y86.638 E2.81956
G1 X105.529 Y86.638 E2.9009
G1 X106.272 Y87.381 E2.99704
G1 X105.794 Y87.311 E3.04124
G1 X105.316 Y87.314 E3.08497
G1 X104.64 Y86.638 E3.17244
G1 X103.751 Y86.638 E3.25378
G1 X104.525 Y87.412 E3.35393
G1 X104.222 Y87.508 E3.38301
G1 X103.878 Y87.655 E3.41724
G1 X102.862 Y86.638 E3.54877
G1 X101.972 Y86.638 E3.6302
G1 X103.326 Y87.992 E3.80539
G1 X103.015 Y88.244 E3.84201
G1 X102.853 Y88.408 E3.8631
G1 X101.083 Y86.638 E4.09212
G1 X100.194 Y86.638 E4.17346
G1 X102.457 Y88.901 E4.46627
G1 X102.337 Y89.085 E4.48637
G1 X102.14 Y89.473 E4.52618
G1 X99.305 Y86.638 E4.893
G1 X98.416 Y86.638 E4.97434
G1 X101.924 Y90.146 E5.42824
G1 X101.838 Y90.95 E5.50222
G1 X97.527 Y86.638 E6.06009
G1 X96.637 Y86.638 E6.14152
G1 X102.025 Y92.026 E6.83867
G1 X102.114 Y92.318 E6.8666
G1 X102.372 Y92.814 E6.91775
G1 X102.588 Y93.129 E6.9527
G1 X102.798 Y93.379 E6.98257
G1 X103.068 Y93.644 E7.01718
G1 X103.322 Y93.849 E7.04704
G1 X103.638 Y94.057 E7.08165
G1 X103.927 Y94.209 E7.11153
G1 X104.382 Y94.383 E7.1561
G1 X105.2 Y95.201 E7.26194
G1 X104.311 Y95.201 E7.34328
G1 X98.932 Y89.823 E8.03921
G1 X98.834 Y89.523 E8.06809
G1 X98.575 Y89.024 E8.11953
G1 X98.36 Y88.71 E8.15435
G1 X98.15 Y88.46 E8.18422
G1 X97.881 Y88.195 E8.21877
G1 X97.626 Y87.991 E8.24865
G1 X97.311 Y87.783 E8.28319
G1 X97.022 Y87.631 E8.31307
G1 X96.566 Y87.456 E8.35776
G1 X95.467 Y86.357 E8.49996
G1 X95.82 Y87.599 F7800
G1 F1800
G1 X94.859 Y86.638 E8.6243
G1 X93.97 Y86.638 E8.70564
G1 X94.702 Y87.371 E8.80042
G1 X94.224 Y87.507 E8.84589
G1 X94.032 Y87.589 E8.86499
G1 X93.081 Y86.638 E8.98804
G1 X92.191 Y86.638 E9.06947
G1 X93.455 Y87.902 E9.23302
G1 X93.298 Y88.006 E9.25025
G1 X92.962 Y88.298 E9.29098
G1 X92.044 Y87.38 E9.40976
G1 X92.044 Y88.27 E9.49119
G1 X92.544 Y88.769 E9.55582
G1 X92.338 Y89.083 E9.59018
G1 X92.21 Y89.325 E9.61523
G1 X91.764 Y88.878 E9.673
G1 E7.673 F2400
G92 E0
G1 X98.806 Y90.586 F7800
G1 E2 F2400
G1 F1800
G1 X103.422 Y95.201 E2.5972
G1 X102.533 Y95.201 E2.67854
G1 X99.023 Y91.691 E3.1327
G1 X98.894 Y92.157 E3.17694
G1 X98.808 Y92.366 E3.19762
G1 X101.644 Y95.201 E3.56451
G1 X100.754 Y95.201 E3.64594
G1 X98.491 Y92.938 E3.93875
G1 X98.403 Y93.072 E3.95342
G1 X98.095 Y93.431 E3.9967
G1 X99.865 Y95.201 E4.22572
G1 X98.976 Y95.201 E4.30706
G1 X97.623 Y93.848 E4.48212
G1 X97.37 Y94.021 E4.51016
G1 X97.07 Y94.185 E4.54144
G1 X98.087 Y95.201 E4.67297
G1 X97.198 Y95.201 E4.75431
G1 X96.424 Y94.427 E4.85446
G1 X96.018 Y94.513 E4.89243
G1 X95.651 Y94.544 E4.92613
G1 X96.308 Y95.201 E5.01114
G1 X95.419 Y95.201 E5.09248
G1 X94.681 Y94.463 E5.18797
G1 X94.277 Y94.352 E5.2263
G1 X93.927 Y94.209 E5.26089
G1 X93.638 Y94.057 E5.29077
G1 X93.322 Y93.849 E5.32538
G1 X93.068 Y93.644 E5.35524
G1 X92.798 Y93.379 E5.38985
G1 X92.588 Y93.129 E5.41972
G1 X92.373 Y92.816 E5.45446
G1 X92.214 Y92.527 E5.48464
G1 X92.092 Y92.25 E5.51233
G1 X92.043 Y92.26 E5.51691
G1 X92.043 Y92.714 E5.55845
G1 X94.53 Y95.201 E5.88024
G1 X93.641 Y95.201 E5.96158
G1 X92.043 Y93.603 E6.16835
G1 X92.043 Y94.492 E6.24969
G1 X93.033 Y95.482 E6.37779
;LAYER_CHANGE
;Z:0.65
;HEIGHT:0.3
G1 Z.65 F7800
G1 E4.37779 F2400
G92 E0
G1 X109.029 Y103.727 F7800
G1 E2 F2400
;TYPE:Overhang perimeter
;WIDTH:0.4
;HEIGHT:0.4
G1 F3600
G1 X109.029 Y114.434 E2.55939
G1 X90.022 Y114.434 E3.55241
G1 X90.022 Y103.727 E4.1118
G1 X108.969 Y103.727 E5.10168
G1 X109.415 Y103.341 F7800
G1 F3600
G1 X109.415 Y114.82 E5.7014
G1 X89.636 Y114.82 E6.73475
G1 X89.636 Y103.341 E7.33447
G1 X109.355 Y103.341 E8.36469
G1 X109.801 Y102.955 F7800
G1 F3600
G1 X109.801 Y115.205 E9.00469
G1 X89.251 Y115.205 E10.07832
G1 X89.251 Y102.955 E10.71832
G1 X109.741 Y102.955 E11.78882
G1 X109.666 Y103.332 F7800
G1 E9.78882 F2400
G92 E0
G1 X106.167 Y107.126 F7800
G1 E2 F2400
G1 F900
G1 X106.386 Y107.316 E2.01515
G1 X106.691 Y107.709 E2.04114
G1 X106.918 Y108.158 E2.06743
G1 X107.053 Y108.654 E2.09429
G1 X107.088 Y109.173 E2.12147
G1 X107.022 Y109.665 E2.1474
G1 X106.862 Y110.135 E2.17334
G1 X106.615 Y110.566 E2.19929
G1 X106.29 Y110.94 E2.22518
G1 X105.897 Y111.246 E2.2512
G1 X105.447 Y111.472 E2.27751
G1 X104.952 Y111.608 E2.30433
G1 X104.432 Y111.642 E2.33156
G1 X103.941 Y111.576 E2.35744
G1 X103.471 Y111.417 E2.38336
G1 X103.04 Y111.17 E2.40931
G1 X102.666 Y110.844 E2.43523
G1 X102.36 Y110.452 E2.46121
G1 X102.134 Y110.002 E2.48752
G1 X101.998 Y109.507 E2.51434
G1 X101.966 Y108.966 E2.54265
G1 X102.051 Y108.425 E2.57126
G1 X102.189 Y108.025 E2.59337
G1 X102.436 Y107.595 E2.61928
G1 X102.762 Y107.22 E2.64524
G1 X103.154 Y106.915 E2.67119
G1 X103.604 Y106.688 E2.69752
G1 X104.116 Y106.551 E2.72521
G1 X104.669 Y106.521 E2.75414
G1 X105.111 Y106.584 E2.77747
G1 X105.581 Y106.744 E2.80341
G1 X106.029 Y107.005 E2.8305
G1 X106.122 Y107.086 E2.83694
G1 X105.965 Y107.457 F7800
G1 F900
G1 X106.091 Y107.564 E2.84558
G1 X106.354 Y107.895 E2.86767
G1 X106.55 Y108.274 E2.88996
G1 X106.67 Y108.693 E2.91273
G1 X106.704 Y109.136 E2.93594
G1 X106.652 Y109.555 E2.958
G1 X106.521 Y109.956 E2.98004
G1 X106.315 Y110.324 E3.00207
G1 X106.042 Y110.645 E3.02409
G1 X105.711 Y110.908 E3.04618
G1 X105.331 Y111.104 E3.06852
G1 X104.913 Y111.224 E3.09124
G1 X104.47 Y111.258 E3.11445
G1 X104.051 Y111.207 E3.1365
G1 X103.65 Y111.075 E3.15856
G1 X103.282 Y110.869 E3.18059
G1 X102.961 Y110.596 E3.20261
G1 X102.698 Y110.266 E3.22466
G1 X102.477 Y109.808 E3.25123
G1 X102.378 Y109.428 E3.27175
G1 X102.35 Y109.004 E3.29395
G1 X102.42 Y108.536 E3.31867
G1 X102.53 Y108.205 E3.33689
G1 X102.737 Y107.837 E3.35895
G1 X103.01 Y107.515 E3.38101
G1 X103.34 Y107.252 E3.40306
G1 X103.72 Y107.056 E3.4254
G1 X104.149 Y106.935 E3.44869
G1 X104.629 Y106.905 E3.47382
G1 X105 Y106.954 E3.49337
G1 X105.401 Y107.085 E3.51541
G1 X105.787 Y107.305 E3.53862
G1 X105.919 Y107.418 E3.5477
G1 X105.795 Y107.812 F7800
G1 F900
G1 X106.016 Y108.081 E3.56589
G1 X106.182 Y108.391 E3.58426
G1 X106.286 Y108.733 E3.60294
G1 X106.32 Y109.099 E3.62214
G1 X106.283 Y109.444 E3.64027
G1 X106.18 Y109.776 E3.65843
G1 X106.015 Y110.082 E3.67659
G1 X105.794 Y110.35 E3.69474
G1 X105.525 Y110.57 E3.7129
G1 X105.215 Y110.737 E3.7313
G1 X104.873 Y110.841 E3.74998
G1 X104.507 Y110.875 E3.76918
G1 X104.162 Y110.837 E3.78731
G1 X103.83 Y110.734 E3.80547
G1 X103.524 Y110.569 E3.82363
G1 X103.256 Y110.348 E3.84178
G1 X103.036 Y110.08 E3.8599
G1 X102.845 Y109.692 E3.88249
G1 X102.761 Y109.388 E3.89897
G1 X102.733 Y109.041 E3.91716
G1 X102.79 Y108.646 E3.93801
G1 X102.872 Y108.385 E3.9523
G1 X103.037 Y108.079 E3.97046
G1 X103.258 Y107.811 E3.98861
G1 X103.526 Y107.59 E4.00676
G1 X103.836 Y107.424 E4.02513
G1 X104.182 Y107.32 E4.04401
