; generated by PrusaSlicer 2.6.1+win64 on 2023-11-22 at 08:54:11 UTC

; 

; external perimeters extrusion width = 0.45mm
; perimeters extrusion width = 0.45mm
; infill extrusion width = 0.45mm
; solid infill extrusion width = 0.45mm
; top infill extrusion width = 0.40mm
; first layer extrusion width = 0.70mm

M104 S200 ; set temperature
;TYPE:Custom
G28 ; home all axes
G1 Z5 F5000 ; lift nozzle
M109 S200 ; set temperature and wait for it to be reached
G21 ; set units to millimeters
G90 ; use absolute coordinates
M82 ; use absolute distances for extrusion
G92 E0
; Filament gcode
M107
;LAYER_CHANGE
;Z:0.35
;HEIGHT:0.35
G1 Z.35 F7800
G1 E-2 F2400
G92 E0
G1 X47.956 Y38.753 F7800
G1 E2 F2400
;TYPE:Skirt/Brim
;WIDTH:0.7
G1 F1800
G1 X49.709 Y37.274 E2.20855
G1 X51.861 Y36.481 E2.41709
G1 X53.041 Y36.375 E2.52482
G1 X146.959 Y36.375 E11.06474
G1 X149.218 Y36.772 E11.2733
G1 X151.206 Y37.915 E11.48182
G1 X152.685 Y39.668 E11.69037
G1 X153.478 Y41.82 E11.89891
G1 X153.584 Y43 E12.00664
G1 X153.584 Y157 E22.37261
G1 X153.187 Y159.259 E22.58117
G1 X152.044 Y161.247 E22.78969
G1 X150.291 Y162.726 E22.99824
G1 X148.139 Y163.519 E23.20678
G1 X146.959 Y163.625 E23.31451
G1 X53.041 Y163.625 E31.85443
G1 X50.782 Y163.228 E32.06299
G1 X48.794 Y162.085 E32.27151
G1 X47.315 Y160.332 E32.48006
G1 X46.522 Y158.18 E32.6886
G1 X46.416 Y157 E32.79633
G1 X46.416 Y43 E43.1623
G1 X46.813 Y40.741 E43.37086
G1 X47.927 Y38.805 E43.57396
G1 E41.57396 F2400
G92 E0
G1 X145.359 Y155.4 F7800
G1 E2 F2400
;TYPE:Perimeter
;WIDTH:0.7
G1 F1800
G1 X54.641 Y155.4 E10.24894
G1 X54.641 Y44.6 E20.32393
G1 X145.359 Y44.6 E28.57287
G1 X145.359 Y155.34 E38.64241
G1 X145.984 Y156.025 F7800
G1 F1800
G1 X54.016 Y156.025 E47.00502
G1 X54.016 Y43.975 E57.19367
G1 X145.984 Y43.975 E65.55628
G1 X145.984 Y155.965 E75.73948
G1 X146.609 Y156.65 F7800
;TYPE:External perimeter
G1 F1800
G1 X53.391 Y156.65 E84.21575
G1 X53.391 Y43.35 E94.51807
G1 X146.609 Y43.35 E102.99434
G1 X146.609 Y156.59 E113.2912
G1 X146.226 Y156.534 F7800
G1 E111.2912 F2400
G92 E0
G1 X122.482 Y122.37 F7800
G1 E2 F2400
;TYPE:Perimeter
G1 F1800
G1 X122.276 Y122.591 E2.02747
G1 X121.892 Y122.821 E2.06817
G1 X121.43 Y122.935 E2.11144
G1 X121.291 Y122.941 E2.12409
G1 X78.709 Y122.941 E5.99605
G1 X78.234 Y122.867 E6.03976
G1 X77.851 Y122.684 E6.07836
G1 X77.542 Y122.418 E6.11543
G1 X77.294 Y122.04 E6.15654
G1 X77.159 Y121.576 E6.20048
G1 X77.147 Y121.379 E6.21843
G1 X77.147 Y78.621 E10.10639
G1 X77.224 Y78.138 E10.15086
G1 X77.433 Y77.72 E10.19335
G1 X77.724 Y77.409 E10.23208
G1 X78.108 Y77.179 E10.27278
G1 X78.57 Y77.065 E10.31605
G1 X78.709 Y77.059 E10.3287
G1 X121.291 Y77.059 E14.20066
G1 X121.766 Y77.133 E14.24437
G1 X122.149 Y77.316 E14.28297
G1 X122.458 Y77.582 E14.32004
G1 X122.706 Y77.96 E14.36115
G1 X122.841 Y78.424 E14.40509
G1 X122.853 Y78.621 E14.42304
G1 X122.853 Y121.379 E18.311
G1 X122.776 Y121.862 E18.35547
G1 X122.567 Y122.28 E18.39796
G1 X122.523 Y122.327 E18.40381
G1 X122.032 Y121.936 F7800
G1 F1800
G1 X121.991 Y122.002 E18.41088
G1 X121.69 Y122.227 E18.44505
G1 X121.291 Y122.316 E18.48222
G1 X78.709 Y122.316 E22.35418
G1 X78.348 Y122.244 E22.38765
G1 X78.044 Y122.04 E22.42094
G1 X77.86 Y121.776 E22.4502
G1 X77.772 Y121.379 E22.48718
G1 X77.772 Y78.621 E26.37514
G1 X77.837 Y78.277 E26.40697
G1 X78.009 Y77.998 E26.43677
G1 X78.31 Y77.773 E26.47094
G1 X78.709 Y77.684 E26.50811
G1 X121.291 Y77.684 E30.38007
G1 X121.652 Y77.756 E30.41354
G1 X121.956 Y77.96 E30.44683
G1 X122.14 Y78.224 E30.47609
G1 X122.228 Y78.621 E30.51307
G1 X122.228 Y121.379 E34.40103
G1 X122.163 Y121.723 E34.43286
G1 X122.063 Y121.885 E34.45017
G1 X121.536 Y121.573 F7800
;TYPE:External perimeter
G1 F1800
G1 X121.36 Y121.684 E34.46909
G1 X121.291 Y121.691 E34.4754
G1 X78.709 Y121.691 E38.34736
G1 X78.512 Y121.621 E38.36637
G1 X78.407 Y121.457 E38.38408
G1 X78.397 Y121.379 E38.39123
G1 X78.397 Y78.621 E42.27919
G1 X78.464 Y78.427 E42.29785
G1 X78.64 Y78.316 E42.31677
G1 X78.709 Y78.309 E42.32308
G1 X121.291 Y78.309 E46.19504
G1 X121.488 Y78.379 E46.21405
G1 X121.593 Y78.543 E46.23176
G1 X121.603 Y78.621 E46.23891
G1 X121.603 Y121.379 E50.12687
G1 X121.555 Y121.517 E50.14016
G1 X121.611 Y121.767 F7800
G1 E48.14016 F2400
G92 E0
G1 X143.907 Y44.787 F7800
G1 E2 F2400
;TYPE:Solid infill
;WIDTH:0.700897
G1 F1800
G1 X144.891 Y45.771 E2.12672
G1 X144.891 Y46.656 E2.20731
G1 X143.303 Y45.068 E2.41181
G1 X142.418 Y45.068 E2.4924
G1 X144.891 Y47.541 E2.81087
G1 X144.891 Y48.426 E2.89146
G1 X141.533 Y45.068 E3.3239
G1 X140.648 Y45.068 E3.40449
G1 X144.891 Y49.311 E3.9509
G1 X144.891 Y50.196 E4.03149
G1 X139.763 Y45.068 E4.69187
G1 X138.878 Y45.068 E4.77246
G1 X144.891 Y51.081 E5.5468
G1 X144.891 Y51.966 E5.62739
G1 X137.993 Y45.068 E6.5157
G1 X137.108 Y45.068 E6.59629
G1 X144.891 Y52.851 E7.59857
G1 X144.891 Y53.736 E7.67916
G1 X136.223 Y45.068 E8.79541
G1 X135.338 Y45.068 E8.876
G1 X144.891 Y54.621 E10.10622
G1 X144.891 Y55.506 E10.18681
G1 X134.453 Y45.068 E11.531
G1 X133.568 Y45.068 E11.61159
G1 X144.891 Y56.391 E13.06975
G1 X144.891 Y57.276 E13.15034
G1 X132.683 Y45.068 E14.72247
G1 X131.798 Y45.068 E14.80306
G1 X144.891 Y58.161 E16.48916
G1 X144.891 Y59.046 E16.56975
G1 X130.913 Y45.068 E18.36981
G1 X130.028 Y45.068 E18.4504
G1 X144.891 Y59.931 E20.36443
G1 X144.891 Y60.816 E20.44502
G1 X129.143 Y45.068 E22.47302
G1 X128.258 Y45.068 E22.55361
G1 X144.891 Y61.701 E24.69558
G1 X144.891 Y62.586 E24.77617
G1 X127.373 Y45.068 E27.03211
G1 X126.488 Y45.068 E27.1127
G1 X144.891 Y63.471 E29.48261
G1 X144.891 Y64.356 E29.5632
G1 X125.603 Y45.068 E32.04708
G1 X124.718 Y45.068 E32.12767
G1 X144.891 Y65.241 E34.72552
G1 X144.891 Y66.126 E34.80611
G1 X123.833 Y45.068 E37.51792
G1 X122.948 Y45.068 E37.59851
G1 X144.891 Y67.011 E40.42429
G1 X144.891 Y67.896 E40.50488
G1 X122.063 Y45.068 E43.44463
G1 X121.178 Y45.068 E43.52522
G1 X144.891 Y68.781 E46.57894
G1 X144.891 Y69.666 E46.65953
G1 X120.293 Y45.068 E49.82722
G1 X119.408 Y45.068 E49.90781
G1 X144.891 Y70.551 E53.18947
G1 X144.891 Y71.436 E53.27006
G1 X118.523 Y45.068 E56.66569
G1 X117.638 Y45.068 E56.74628
G1 X144.891 Y72.321 E60.25588
G1 X144.891 Y73.206 E60.33647
G1 X116.753 Y45.068 E63.96004
G1 X115.868 Y45.068 E64.04063
G1 X144.891 Y74.091 E67.77816
G1 X144.891 Y74.976 E67.85875
G1 X114.983 Y45.068 E71.71025
G1 X114.098 Y45.068 E71.79084
G1 X144.891 Y75.861 E75.75631
G1 X144.891 Y76.746 E75.8369
G1 X113.213 Y45.068 E79.91634
G1 X112.328 Y45.068 E79.99693
G1 X144.891 Y77.631 E84.19034
G1 X144.891 Y78.516 E84.27093
G1 X111.443 Y45.068 E88.57831
G1 X110.558 Y45.068 E88.6589
G1 X144.891 Y79.401 E93.08025
G1 X144.891 Y80.286 E93.16084
G1 X109.673 Y45.068 E97.69616
G1 X108.788 Y45.068 E97.77675
G1 X144.891 Y81.171 E102.42604
G1 X144.891 Y82.056 E102.50663
G1 X107.903 Y45.068 E107.26988
G1 X107.018 Y45.068 E107.35047
G1 X144.891 Y82.941 E112.22769
G1 X144.891 Y83.826 E112.30828
G1 X106.133 Y45.068 E117.29947
G1 X105.248 Y45.068 E117.38006
G1 X144.891 Y84.711 E122.48522
G1 X144.891 Y85.596 E122.56581
G1 X104.363 Y45.068 E127.78494
G1 X103.478 Y45.068 E127.86553
G1 X144.891 Y86.481 E133.19863
G1 X144.891 Y87.366 E133.27922
G1 X102.593 Y45.068 E138.72629
G1 X101.708 Y45.068 E138.80688
G1 X144.891 Y88.251 E144.36792
G1 X144.891 Y89.136 E144.44851
G1 X100.823 Y45.068 E150.12351
G1 X99.938 Y45.068 E150.2041
G1 X144.891 Y90.021 E155.99307
G1 X144.891 Y90.906 E156.07366
G1 X99.053 Y45.068 E161.9766
G1 X98.168 Y45.068 E162.05719
G1 X144.891 Y91.791 E168.0741
G1 X144.891 Y92.676 E168.15469
G1 X97.283 Y45.068 E174.28557
G1 X96.398 Y45.068 E174.36616
G1 X144.891 Y93.561 E180.61101
G1 X144.891 Y94.446 E180.6916
G1 X95.513 Y45.068 E187.05042
G1 X94.628 Y45.068 E187.13101
G1 X144.891 Y95.331 E193.6038
G1 X144.891 Y96.216 E193.68439
G1 X93.743 Y45.068 E200.27115
G1 X92.858 Y45.068 E200.35174
G1 X144.891 Y97.101 E207.05246
G1 X144.891 Y97.986 E207.13305
G1 X91.973 Y45.068 E213.94774
G1 X91.088 Y45.068 E214.02833
G1 X144.891 Y98.871 E220.95699
G1 X144.891 Y99.756 E221.03758
G1 X123.251 Y78.116 E223.82434
G1 X123.18 Y77.875 E223.84722
G1 X123.015 Y77.547 E223.88065
G1 X122.732 Y77.189 E223.92221
G1 X122.407 Y76.924 E223.9604
G1 X122.072 Y76.746 E223.99494
G1 X121.8 Y76.666 E224.02076
G1 X90.203 Y45.068 E228.08983
G1 X89.318 Y45.068 E228.17042
G1 X120.84 Y76.59 E232.22977
G1 X119.955 Y76.59 E232.31036
G1 X88.433 Y45.068 E236.36971
G1 X87.548 Y45.068 E236.4503
G1 X119.07 Y76.59 E240.50965
G1 X118.185 Y76.59 E240.59024
G1 X86.663 Y45.068 E244.64959
G1 X85.778 Y45.068 E244.73018
G1 X117.3 Y76.59 E248.78953
G1 X116.415 Y76.59 E248.87012
G1 X84.893 Y45.068 E252.92947
G1 X84.008 Y45.068 E253.01006
G1 X115.53 Y76.59 E257.06941
G1 X114.645 Y76.59 E257.15
G1 X83.123 Y45.068 E261.20935
G1 X82.238 Y45.068 E261.28994
G1 X113.76 Y76.59 E265.34929
G1 X112.875 Y76.59 E265.42988
G1 X81.353 Y45.068 E269.48923
G1 X80.468 Y45.068 E269.56982
G1 X111.99 Y76.59 E273.62917
G1 X111.105 Y76.59 E273.70976
G1 X79.583 Y45.068 E277.76911
G1 X78.698 Y45.068 E277.8497
G1 X110.22 Y76.59 E281.90905
G1 X109.335 Y76.59 E281.98964
G1 X77.813 Y45.068 E286.04899
G1 X76.928 Y45.068 E286.12958
G1 X108.45 Y76.59 E290.18893
G1 X107.565 Y76.59 E290.26952
G1 X76.043 Y45.068 E294.32887
G1 X75.158 Y45.068 E294.40946
G1 X106.68 Y76.59 E298.46881
G1 X105.795 Y76.59 E298.5494
G1 X74.273 Y45.068 E302.60875
G1 X73.388 Y45.068 E302.68934
G1 X104.91 Y76.59 E306.74869
G1 X104.025 Y76.59 E306.82928
G1 X72.503 Y45.068 E310.88863
G1 X71.618 Y45.068 E310.96922
G1 X103.14 Y76.59 E315.02857
G1 X102.255 Y76.59 E315.10916
G1 X70.733 Y45.068 E319.16851
G1 X69.848 Y45.068 E319.2491
G1 X101.37 Y76.59 E323.30845
G1 X100.485 Y76.59 E323.38904
G1 X68.963 Y45.068 E327.44839
G1 X68.078 Y45.068 E327.52898
G1 X99.6 Y76.59 E331.58833
G1 X98.715 Y76.59 E331.66892
G1 X67.193 Y45.068 E335.72827
G1 X66.308 Y45.068 E335.80886
G1 X97.83 Y76.59 E339.86821
G1 X96.945 Y76.59 E339.9488
G1 X65.423 Y45.068 E344.00815
G1 X64.538 Y45.068 E344.08874
G1 X96.06 Y76.59 E348.14809
G1 X95.175 Y76.59 E348.22868
G1 X63.653 Y45.068 E352.28803
G1 X62.768 Y45.068 E352.36862
G1 X94.29 Y76.59 E356.42797
G1 X93.405 Y76.59 E356.50856
G1 X61.883 Y45.068 E360.56791
G1 X60.998 Y45.068 E360.6485
G1 X92.52 Y76.59 E364.70785
G1 X91.635 Y76.59 E364.78844
G1 X60.113 Y45.068 E368.84779
G1 X59.228 Y45.068 E368.92838
G1 X90.75 Y76.59 E372.98773
G1 X89.865 Y76.59 E373.06832
G1 X58.343 Y45.068 E377.12767
G1 X57.458 Y45.068 E377.20826
G1 X88.98 Y76.59 E381.26761
G1 X88.095 Y76.59 E381.3482
G1 X56.573 Y45.068 E385.40755
G1 X55.688 Y45.068 E385.48814
G1 X87.21 Y76.59 E389.54749
G1 X86.325 Y76.59 E389.62808
G1 X55.109 Y45.375 E393.64796
G1 X55.109 Y46.26 E393.72855
G1 X85.44 Y76.59 E397.63446
G1 X84.555 Y76.59 E397.71505
G1 X55.109 Y47.145 E401.50699
G1 X55.109 Y48.03 E401.58758
G1 X83.67 Y76.59 E405.26555
G1 X82.785 Y76.59 E405.34614
G1 X55.109 Y48.915 E408.91015
G1 X55.109 Y49.8 E408.99074
G1 X81.9 Y76.59 E412.44078
G1 X81.015 Y76.59 E412.52137
G1 X55.109 Y50.685 E415.85744
G1 X55.109 Y51.57 E415.93803
G1 X80.13 Y76.59 E419.16013
G1 X79.245 Y76.59 E419.24072
G1 X55.109 Y52.455 E422.34885
G1 X55.109 Y53.339 E422.42935
G1 X78.388 Y76.618 E425.42718
G1 X77.928 Y76.746 E425.47066
G1 X77.734 Y76.849 E425.49066
G1 X55.109 Y54.224 E428.40427
G1 X55.109 Y55.109 E428.48486
G1 X77.233 Y77.233 E431.33395
G1 X76.985 Y77.547 E431.37039
G1 X76.877 Y77.762 E431.3923
G1 X55.109 Y55.994 E434.19555
G1 X55.109 Y56.879 E434.27614
G1 X76.693 Y78.463 E437.05569
G1 X76.678 Y79.333 E437.13492
G1 X55.109 Y57.764 E439.91254
G1 X55.109 Y58.649 E439.99313
G1 X76.678 Y80.218 E442.77075
G1 X76.678 Y81.103 E442.85134
G1 X55.109 Y59.534 E445.62896
G1 X55.109 Y60.419 E445.70955
G1 X76.678 Y81.988 E448.48717
G1 X76.678 Y82.873 E448.56776
G1 X55.109 Y61.304 E451.34538
G1 X55.109 Y62.189 E451.42597
G1 X76.678 Y83.758 E454.20359
G1 X76.678 Y84.643 E454.28418
G1 X55.109 Y63.074 E457.0618
G1 X55.109 Y63.959 E457.14239
G1 X76.678 Y85.528 E459.92001
G1 X76.678 Y86.413 E460.0006
G1 X55.109 Y64.844 E462.77822
G1 X55.109 Y65.729 E462.85881
G1 X76.678 Y87.298 E465.63643
G1 X76.678 Y88.183 E465.71702
G1 X55.109 Y66.614 E468.49464
G1 X55.109 Y67.499 E468.57523
G1 X76.678 Y89.068 E471.35285
G1 X76.678 Y89.953 E471.43344
G1 X55.109 Y68.384 E474.21106
G1 X55.109 Y69.269 E474.29165
G1 X76.678 Y90.838 E477.06927
G1 X76.678 Y91.723 E477.14986
G1 X55.109 Y70.154 E479.92748
G1 X55.109 Y71.039 E480.00807
G1 X76.678 Y92.608 E482.78569
G1 X76.678 Y93.493 E482.86628
G1 X55.109 Y71.924 E485.6439
G1 X55.109 Y72.809 E485.72449
G1 X76.678 Y94.378 E488.50211
G1 X76.678 Y95.263 E488.5827
G1 X55.109 Y73.694 E491.36032
G1 X55.109 Y74.579 E491.44091
G1 X76.678 Y96.148 E494.21853
G1 X76.678 Y97.033 E494.29912
G1 X55.109 Y75.464 E497.07674
G1 X55.109 Y76.349 E497.15733
G1 X76.678 Y97.918 E499.93495
G1 X76.678 Y98.803 E500.01554
G1 X55.109 Y77.234 E502.79316
G1 X55.109 Y78.119 E502.87375
G1 X76.678 Y99.688 E505.65137
G1 X76.678 Y100.573 E505.73196
G1 X55.109 Y79.004 E508.50958
G1 X55.109 Y79.889 E508.59017
G1 X76.678 Y101.458 E511.36779
G1 X76.678 Y102.343 E511.44838
G1 X55.109 Y80.774 E514.226
G1 X55.109 Y81.659 E514.30659
G1 X76.678 Y103.228 E517.08421
G1 X76.678 Y104.113 E517.1648
G1 X55.109 Y82.544 E519.94242
G1 X55.109 Y83.429 E520.02301
G1 X76.678 Y104.998 E522.80063
G1 X76.678 Y105.883 E522.88122
G1 X55.109 Y84.314 E525.65884
G1 X55.109 Y85.199 E525.73943
G1 X76.678 Y106.768 E528.51705
G1 X76.678 Y107.653 E528.59764
G1 X55.109 Y86.084 E531.37526
G1 X55.109 Y86.969 E531.45585
G1 X76.678 Y108.538 E534.23347
G1 X76.678 Y109.423 E534.31406
G1 X55.109 Y87.854 E537.09168
G1 X55.109 Y88.739 E537.17227
G1 X76.678 Y110.308 E539.94989
G1 X76.678 Y111.193 E540.03048
G1 X55.109 Y89.624 E542.8081
G1 X55.109 Y90.509 E542.88869
G1 X76.678 Y112.078 E545.66631
G1 X76.678 Y112.963 E545.7469
G1 X55.109 Y91.394 E548.52452
G1 X55.109 Y92.279 E548.60511
G1 X76.678 Y113.848 E551.38273
G1 X76.678 Y114.733 E551.46332
G1 X55.109 Y93.164 E554.24094
G1 X55.109 Y94.049 E554.32153
G1 X76.678 Y115.618 E557.09915
G1 X76.678 Y116.503 E557.17974
G1 X55.109 Y94.934 E559.95736
G1 X55.109 Y95.819 E560.03795
G1 X76.678 Y117.388 E562.81557
G1 X76.678 Y118.273 E562.89616
G1 X55.109 Y96.704 E565.67378
G1 X55.109 Y97.589 E565.75437
G1 X76.678 Y119.158 E568.53199
G1 X76.678 Y120.043 E568.61258
G1 X55.109 Y98.474 E571.3902
G1 X55.109 Y99.359 E571.47079
G1 X76.959 Y121.209 E574.2846
G1 E572.2846 F2400
G92 E0
G1 X123.041 Y78.791 F7800
G1 E2 F2400
G1 F1800
G1 X144.891 Y100.641 E4.81381
G1 X144.891 Y101.526 E4.8944
G1 X123.322 Y79.957 E7.67202
G1 X123.322 Y80.842 E7.75261
G1 X144.891 Y102.411 E10.53023
G1 X144.891 Y103.296 E10.61082
G1 X123.322 Y81.727 E13.38844
G1 X123.322 Y82.612 E13.46903
G1 X144.891 Y104.181 E16.24665
G1 X144.891 Y105.066 E16.32724
G1 X123.322 Y83.497 E19.10486
G1 X123.322 Y84.382 E19.18545
G1 X144.891 Y105.951 E21.96307
G1 X144.891 Y106.836 E22.04366
G1 X123.322 Y85.267 E24.82128
G1 X123.322 Y86.152 E24.90187
G1 X144.891 Y107.721 E27.67949
G1 X144.891 Y108.606 E27.76008
G1 X123.322 Y87.037 E30.5377
G1 X123.322 Y87.922 E30.61829
G1 X144.891 Y109.491 E33.39591
G1 X144.891 Y110.376 E33.4765
G1 X123.322 Y88.807 E36.25412
G1 X123.322 Y89.692 E36.33471
G1 X144.891 Y111.261 E39.11233
G1 X144.891 Y112.146 E39.19292
G1 X123.322 Y90.577 E41.97054
G1 X123.322 Y91.462 E42.05113
G1 X144.891 Y113.031 E44.82875
G1 X144.891 Y113.916 E44.90934
G1 X123.322 Y92.347 E47.68696
G1 X123.322 Y93.232 E47.76755
G1 X144.891 Y114.801 E50.54517
G1 X144.891 Y115.686 E50.62576
G1 X123.322 Y94.117 E53.40338
G1 X123.322 Y95.002 E53.48397
G1 X144.891 Y116.571 E56.26159
G1 X144.891 Y117.456 E56.34218
G1 X123.322 Y95.887 E59.1198
G1 X123.322 Y96.772 E59.20039
G1 X144.891 Y118.341 E61.97801
G1 X144.891 Y119.226 E62.0586
G1 X123.322 Y97.657 E64.83622
G1 X123.322 Y98.542 E64.91681
G1 X144.891 Y120.111 E67.69443
G1 X144.891 Y120.996 E67.77502
G1 X123.322 Y99.427 E70.55264
G1 X123.322 Y100.312 E70.63323
G1 X144.891 Y121.881 E73.41085
G1 X144.891 Y122.766 E73.49144
G1 X123.322 Y101.197 E76.26906
G1 X123.322 Y102.082 E76.34965
G1 X144.891 Y123.651 E79.12727
G1 X144.891 Y124.536 E79.20786
G1 X123.322 Y102.967 E81.98548
