; generated by PrusaSlicer 2.6.1+win64 on 2023-11-22 at 08:54:31 UTC

; 

; external perimeters extrusion width = 0.45mm
; perimeters extrusion width = 0.45mm
; infill extrusion width = 0.45mm
; solid infill extrusion width = 0.45mm
; top infill extrusion width = 0.40mm
; first layer extrusion width = 0.70mm

M104 S200 ; set temperature
;TYPE:Custom
G28 ; home all axes
G1 Z5 F5000 ; lift nozzle
M109 S200 ; set temperature and wait for it to be reached
G21 ; set units to millimeters
G90 ; use absolute coordinates
M82 ; use absolute distances for extrusion
G92 E0
; Filament gcode
M107
;LAYER_CHANGE
;Z:0.35
;HEIGHT:0.35
G1 Z.35 F7800
G1 E-2 F2400
G92 E0
G1 X44.956 Y35.753 F7800
G1 E2 F2400
;TYPE:Skirt/Brim
;WIDTH:0.7
G1 F1800
G1 X46.709 Y34.274 E2.20855
G1 X48.861 Y33.481 E2.41709
G1 X50.041 Y33.375 E2.52482
G1 X149.959 Y33.375 E11.61032
G1 X152.218 Y33.772 E11.81888
G1 X154.206 Y34.915 E12.0274
G1 X155.685 Y36.668 E12.23595
G1 X156.478 Y38.82 E12.44449
G1 X156.584 Y40 E12.55222
G1 X156.584 Y160 E23.46377
G1 X156.187 Y162.259 E23.67233
G1 X155.044 Y164.247 E23.88085
G1 X153.291 Y165.726 E24.0894
G1 X151.139 Y166.519 E24.29794
G1 X149.959 Y166.625 E24.40567
G1 X50.041 Y166.625 E33.49117
G1 X47.782 Y166.228 E33.69973
G1 X45.794 Y165.085 E33.90825
G1 X44.315 Y163.332 E34.1168
G1 X43.522 Y161.18 E34.32534
G1 X43.416 Y160 E34.43307
G1 X43.416 Y40 E45.34462
G1 X43.813 Y37.741 E45.55318
G1 X44.927 Y35.805 E45.75628
G1 E43.75628 F2400
G92 E0
G1 X51.541 Y42.962 F7800
G1 E2 F2400
;TYPE:Perimeter
;WIDTH:0.538693
G1 F1800
G1 X51.56 Y41.519 E2.09735
G1 X52.749 Y41.511 E2.17756
;WIDTH:0.536881
G1 X52.415 Y41.604 E2.20086
;WIDTH:0.538693
G1 X51.956 Y41.915 E2.23826
G1 X51.644 Y42.374 E2.2757
G1 X51.551 Y42.903 E2.31193
G1 E.31193 F2400
G92 E0
G1 X148.459 Y42.962 F7800
G1 E2 F2400
;WIDTH:0.538694
G1 F1800
G1 X148.356 Y42.374 E2.04027
G1 X148.044 Y41.915 E2.07771
G1 X147.585 Y41.603 E2.11515
G1 X146.997 Y41.5 E2.15542
G1 X148.44 Y41.519 E2.25277
G1 X148.457 Y42.902 E2.34607
G1 E.34607 F2400
G92 E0
G1 X146.997 Y141.628 F7800
G1 E2 F2400
;WIDTH:0.538681
G1 F1800
G1 X147.132 Y141.622 E2.00912
;WIDTH:0.576917
G1 X147.267 Y141.617 E2.01898
;WIDTH:0.615153
G1 X147.402 Y141.611 E2.0296
;WIDTH:0.653389
G1 X147.537 Y141.606 E2.04097
G1 X147.92 Y141.396 E2.07772
G1 X148.354 Y140.889 E2.13388
G1 X148.386 Y140.733 E2.14728
;WIDTH:0.609794
G1 X148.417 Y140.576 E2.15973
;WIDTH:0.566199
G1 X148.448 Y140.42 E2.1711
G1 X148.426 Y140.579 E2.18257
;WIDTH:0.609794
G1 X148.404 Y140.737 E2.19498
;WIDTH:0.653389
G1 X148.383 Y140.896 E2.20848
G1 X148.383 Y142.359 E2.33159
G1 X148.402 Y142.542 E2.34707
;WIDTH:0.615153
G1 X148.421 Y142.724 E2.36145
;WIDTH:0.576917
G1 X148.44 Y142.907 E2.37488
;WIDTH:0.538681
G1 X148.459 Y143.09 E2.38729
G1 X148.433 Y142.909 E2.39962
;WIDTH:0.576917
G1 X148.407 Y142.728 E2.41297
;WIDTH:0.615153
G1 X148.381 Y142.547 E2.42734
;WIDTH:0.653389
G1 X148.354 Y142.366 E2.44274
G1 X147.92 Y141.859 E2.4989
G1 X147.537 Y141.649 E2.53565
G1 X147.402 Y141.644 E2.54702
;WIDTH:0.615153
G1 X147.267 Y141.638 E2.55764
;WIDTH:0.576917
G1 X147.132 Y141.633 E2.5675
;WIDTH:0.538681
G1 X147.056 Y141.63 E2.57263
G1 E.57263 F2400
G92 E0
G1 X147.251 Y158.489 F7800
G1 E2 F2400
;WIDTH:0.536881
G1 F1800
G1 X147.585 Y158.396 E2.0233
;WIDTH:0.538694
G1 X148.044 Y158.085 E2.0607
G1 X148.355 Y157.626 E2.0981
;WIDTH:0.536881
G1 X148.448 Y157.292 E2.1214
G1 X148.441 Y157.643 E2.14499
;WIDTH:0.538694
G1 X148.44 Y158.481 E2.20152
G1 X147.311 Y158.488 E2.27768
G1 E.27768 F2400
G92 E0
G1 X51.552 Y157.292 F7800
G1 E2 F2400
;WIDTH:0.536882
G1 F1800
G1 X51.645 Y157.626 E2.0233
;WIDTH:0.538694
G1 X51.956 Y158.085 E2.0607
G1 X52.415 Y158.397 E2.09814
G1 X53.003 Y158.5 E2.13841
G1 X51.56 Y158.481 E2.23576
G1 X51.553 Y157.352 E2.31192
G1 E.31192 F2400
G92 E0
G1 X57.016 Y142.153 F7800
G1 E2 F2400
;WIDTH:0.7
G1 F1800
G1 X146.997 Y142.153 E10.18193
G1 X147.326 Y142.212 E10.21232
G1 X147.559 Y142.34 E10.23649
G1 X147.824 Y142.649 E10.2735
G1 X147.934 Y143.09 E10.31483
G1 X147.934 Y157.038 E11.58312
G1 X147.857 Y157.41 E11.61766
G1 X147.659 Y157.7 E11.64959
G1 X147.369 Y157.898 E11.68152
G1 X146.997 Y157.975 E11.71606
G1 X53.003 Y157.975 E20.26289
G1 X52.631 Y157.898 E20.29743
G1 X52.341 Y157.7 E20.32936
G1 X52.143 Y157.41 E20.36129
G1 X52.066 Y157.038 E20.39583
G1 X52.066 Y42.962 E30.76871
G1 X52.143 Y42.59 E30.80325
G1 X52.341 Y42.3 E30.83518
G1 X52.631 Y42.102 E30.86711
G1 X53.003 Y42.025 E30.90165
G1 X146.997 Y42.025 E39.44848
G1 X147.369 Y42.102 E39.48302
G1 X147.659 Y42.3 E39.51495
G1 X147.857 Y42.59 E39.54688
G1 X147.934 Y42.962 E39.58142
G1 X147.934 Y140.165 E48.42004
G1 X147.92 Y140.327 E48.43483
G1 X147.824 Y140.606 E48.46166
G1 X147.559 Y140.915 E48.49867
G1 X147.326 Y141.043 E48.52284
G1 X146.997 Y141.102 E48.55323
G1 X57.016 Y141.102 E56.73516
G1 X57.016 Y142.093 E56.82527
G1 X56.391 Y142.778 F7800
;TYPE:External perimeter
G1 F1800
G1 X146.997 Y142.778 E65.06403
G1 X147.184 Y142.84 E65.08194
G1 X147.272 Y142.943 E65.09426
G1 X147.309 Y143.09 E65.10804
G1 X147.309 Y157.038 E66.37633
G1 X147.283 Y157.162 E66.38785
G1 X147.121 Y157.324 E66.40868
G1 X146.997 Y157.35 E66.4202
G1 X53.003 Y157.35 E74.96703
G1 X52.783 Y157.258 E74.98871
G1 X52.696 Y157.092 E75.00575
G1 X52.691 Y157.038 E75.01068
G1 X52.691 Y42.962 E85.38356
G1 X52.783 Y42.742 E85.40524
G1 X52.949 Y42.655 E85.42228
G1 X53.003 Y42.65 E85.42721
G1 X146.997 Y42.65 E93.97404
G1 X147.217 Y42.742 E93.99572
G1 X147.309 Y42.962 E94.0174
G1 X147.309 Y140.165 E102.85602
G1 X147.272 Y140.312 E102.8698
G1 X147.106 Y140.458 E102.8899
G1 X146.997 Y140.478 E102.89998
G1 X56.391 Y140.478 E111.13874
G1 X56.391 Y142.718 E111.34242
G1 X56.791 Y142.774 F7800
G1 E109.34242 F2400
G92 E0
G1 X52.749 Y41.511 F7800
G1 E2 F2400
;TYPE:Perimeter
;WIDTH:0.522607
G1 F1800
G1 X53.003 Y41.5 E2.01656
;WIDTH:0.500445
G1 X146.997 Y41.5 E7.83401
G1 E5.83401 F2400
G92 E0
G1 X148.984 Y159.025 F7800
G1 E2 F2400
;WIDTH:0.7
G1 F1800
G1 X51.016 Y159.025 E10.90818
G1 X51.016 Y40.975 E21.64241
G1 X148.984 Y40.975 E30.55059
G1 X148.984 Y158.965 E41.27936
G1 X149.609 Y159.65 F7800
;TYPE:External perimeter
G1 F1800
G1 X50.391 Y159.65 E50.30121
G1 X50.391 Y40.35 E61.1491
G1 X149.609 Y40.35 E70.17095
G1 X149.609 Y159.59 E81.01339
G1 X149.226 Y159.535 F7800
G1 E79.01339 F2400
G92 E0
G1 X148.459 Y42.962 F7800
G1 E2 F2400
;TYPE:Perimeter
;WIDTH:0.500445
G1 F1800
G1 X148.459 Y140.165 E8.01606
;WIDTH:0.522605
G1 X148.448 Y140.42 E8.03268
G1 E6.03268 F2400
G92 E0
G1 X148.459 Y143.09 F7800
G1 E2 F2400
;WIDTH:0.500445
G1 F1800
G1 X148.459 Y157.038 E2.86326
;WIDTH:0.522605
G1 X148.448 Y157.292 E2.87982
G1 X147.251 Y158.489 F7800
;WIDTH:0.522607
G1 F1800
G1 X146.997 Y158.5 E2.89638
;WIDTH:0.500445
G1 X53.003 Y158.5 E8.71383
G1 X51.552 Y157.292 F7800
;WIDTH:0.522609
G1 F1800
G1 X51.541 Y157.038 E8.73039
;WIDTH:0.500447
G1 X51.541 Y42.962 E15.79078
G1 E13.79078 F2400
G92 E0
G1 X57.541 Y141.628 F7800
G1 E2 F2400
;WIDTH:0.500445
G1 F1800
G1 X146.997 Y141.628 E7.53658
;LAYER_CHANGE
;Z:0.65
;HEIGHT:0.3
G1 Z.65 F7800
G1 E5.53658 F2400
G92 E0
G1 X148.963 Y159.004 F7800
G1 E2 F2400
;WIDTH:0.45
G1 F3600
G1 X51.037 Y159.004 E6.7099
G1 X51.037 Y40.996 E12.38567
G1 X148.963 Y40.996 E17.09557
G1 X148.963 Y158.944 E22.76846
G1 X149.348 Y159.389 F7800
G1 F3600
G1 X50.652 Y159.389 E27.51539
G1 X50.652 Y40.611 E33.2282
G1 X149.348 Y40.611 E37.97513
G1 X149.348 Y159.329 E43.68505
G1 X149.734 Y159.775 F7800
;TYPE:External perimeter
G1 F1800
G1 X50.266 Y159.775 E48.46912
G1 X50.266 Y40.225 E54.21906
G1 X149.734 Y40.225 E59.00313
G1 X149.734 Y159.715 E64.75018
G1 X149.351 Y159.66 F7800
G1 E62.75018 F2400
G92 E0
G1 X57.037 Y142.131 F7800
G1 E2 F2400
;TYPE:Perimeter
G1 F3600
G1 X146.991 Y142.131 E6.32647
G1 X147.33 Y142.193 E6.34305
G1 X147.57 Y142.324 E6.3562
G1 X147.842 Y142.642 E6.37633
G1 X147.955 Y143.095 E6.39879
G1 X147.955 Y157.032 E7.06911
G1 X147.876 Y157.415 E7.08792
G1 X147.673 Y157.714 E7.1053
G1 X147.374 Y157.917 E7.12268
G1 X146.991 Y157.996 E7.14149
G1 X53.009 Y157.996 E11.6617
G1 X52.626 Y157.917 E11.68051
G1 X52.327 Y157.714 E11.69789
G1 X52.124 Y157.415 E11.71527
G1 X52.045 Y157.032 E11.73408
G1 X52.045 Y42.968 E17.22016
G1 X52.124 Y42.585 E17.23897
G1 X52.327 Y42.286 E17.25635
G1 X52.626 Y42.083 E17.27373
G1 X53.009 Y42.004 E17.29254
G1 X146.991 Y42.004 E21.81275
G1 X147.374 Y42.083 E21.83156
G1 X147.673 Y42.286 E21.84894
G1 X147.876 Y42.585 E21.86632
G1 X147.955 Y42.968 E21.88513
G1 X147.955 Y140.16 E26.55973
G1 X147.941 Y140.326 E26.56774
G1 X147.842 Y140.613 E26.58234
G1 X147.57 Y140.931 E26.60247
G1 X147.33 Y141.062 E26.61562
G1 X146.991 Y141.124 E26.6322
G1 X57.037 Y141.124 E30.95867
G1 X57.037 Y142.071 E31.00422
G1 X56.652 Y142.517 F7800
G1 F3600
G1 X146.991 Y142.517 E35.34921
G1 X147.194 Y142.554 E35.35913
G1 X147.338 Y142.633 E35.36703
G1 X147.502 Y142.823 E35.3791
G1 X147.57 Y143.095 E35.39258
G1 X147.57 Y157.032 E36.0629
G1 X147.522 Y157.262 E36.0742
G1 X147.4 Y157.441 E36.08462
G1 X147.221 Y157.563 E36.09504
G1 X146.991 Y157.611 E36.10634
G1 X53.009 Y157.611 E40.62655
G1 X52.779 Y157.563 E40.63785
G1 X52.6 Y157.441 E40.64827
G1 X52.478 Y157.262 E40.65869
G1 X52.43 Y157.032 E40.66999
G1 X52.43 Y42.968 E46.15607
G1 X52.478 Y42.738 E46.16737
G1 X52.6 Y42.559 E46.17779
G1 X52.779 Y42.437 E46.18821
G1 X53.009 Y42.389 E46.19951
G1 X146.991 Y42.389 E50.71972
G1 X147.221 Y42.437 E50.73102
G1 X147.4 Y42.559 E50.74144
G1 X147.522 Y42.738 E50.75186
G1 X147.57 Y42.968 E50.76316
G1 X147.57 Y140.16 E55.43776
G1 X147.502 Y140.432 E55.45124
G1 X147.338 Y140.622 E55.46331
G1 X147.194 Y140.701 E55.47121
G1 X146.991 Y140.738 E55.48113
G1 X56.652 Y140.738 E59.82612
G1 X56.652 Y142.457 E59.9088
G1 X56.266 Y142.903 F7800
;TYPE:External perimeter
G1 F1800
G1 X146.991 Y142.903 E64.27236
G1 X147.107 Y142.941 E64.27823
G1 X147.184 Y143.095 E64.28651
G1 X147.184 Y157.032 E64.95683
G1 X147.128 Y157.169 E64.96395
G1 X146.991 Y157.225 E64.97107
G1 X53.009 Y157.225 E69.49128
G1 X52.872 Y157.169 E69.4984
G1 X52.816 Y157.032 E69.50552
G1 X52.816 Y42.968 E74.9916
G1 X52.872 Y42.831 E74.99872
G1 X53.009 Y42.775 E75.00584
G1 X146.991 Y42.775 E79.52605
G1 X147.128 Y42.831 E79.53317
G1 X147.184 Y42.968 E79.54029
G1 X147.184 Y140.16 E84.21489
G1 X147.107 Y140.314 E84.22317
G1 X146.991 Y140.353 E84.22906
G1 X56.266 Y140.353 E88.59262
G1 X56.266 Y142.843 E88.71238
G1 X56.666 Y142.899 F7800
G1 E86.71238 F2400
G92 E0
G1 X146.981 Y41.296 F7800
G1 E2 F2400
;TYPE:Solid infill
;WIDTH:0.471738
G1 F1200
G1 X52.499 Y41.285 E6.80042
;WIDTH:0.45
G1 X51.326 Y41.285 E6.85684
G1 X51.326 Y42.454 E6.91306
;WIDTH:0.471738
G1 X51.326 Y157.542 E12.76043
;WIDTH:0.45
G1 X51.326 Y158.715 E12.81685
G1 X52.495 Y158.715 E12.87307
;WIDTH:0.471737
G1 X147.501 Y158.715 E17.70011
;WIDTH:0.45
G1 X148.674 Y158.715 E17.75653
G1 X148.674 Y157.542 E17.81295
;WIDTH:0.471738
G1 X148.674 Y142.48 E18.57822
;WIDTH:0.45
G1 X148.674 Y140.813 E18.6584
;WIDTH:0.472508
G1 X148.663 Y140.156 E18.69185
;WIDTH:0.471738
G1 X148.674 Y42.454 E23.65587
;WIDTH:0.45
G1 X148.674 Y41.285 E23.71209
G1 X147.505 Y41.285 E23.76831
;WIDTH:0.463735
G1 X147.174 Y41.292 E23.7848
G1 E21.7848 F2400
G92 E0
G1 X51.86 Y41.735 F7800
G1 E2 F2400
;WIDTH:0.612971
G1 F1200
G1 X51.811 Y41.686 E2.00474
G1 X51.745 Y41.704 E2.00942
G1 X51.727 Y41.77 E2.0141
G1 X51.776 Y41.819 E2.01884
G1 X51.842 Y41.801 E2.02352
G1 E.02352 F2400
G92 E0
G1 X146.788 Y41.704 F7800
G1 E2 F2400
;WIDTH:0.471738
G1 F1200
G1 X53.013 Y41.704 E6.7645
G1 X52.552 Y41.805 E6.78848
;WIDTH:0.45
G1 X52.152 Y42.06 E6.8113
G1 X51.878 Y42.438 E6.83375
;WIDTH:0.471738
G1 X51.745 Y42.978 E6.86201
G1 X51.745 Y157.028 E12.65664
G1 X51.846 Y157.489 E12.68062
;WIDTH:0.45
G1 X52.101 Y157.889 E12.70344
G1 X52.479 Y158.163 E12.72589
;WIDTH:0.471737
G1 X53.019 Y158.296 E12.75415
G1 X146.987 Y158.296 E17.52845
G1 X147.448 Y158.195 E17.55243
;WIDTH:0.45
G1 X147.876 Y157.917 E17.57698
G1 X148.124 Y157.558 E17.59797
;WIDTH:0.471738
G1 X148.255 Y157.028 E17.62571
G1 X148.255 Y143.107 E18.33301
;WIDTH:0.472992
G1 X148.111 Y142.55 E18.36233
;WIDTH:0.45
G1 X147.77 Y142.12 E18.38873
G1 X147.457 Y141.935 E18.40622
;WIDTH:0.471739
G1 X146.983 Y141.831 E18.43088
G1 X57.337 Y141.831 E22.98561
G1 X57.337 Y141.424 E23.00629
G1 X146.983 Y141.424 E27.56102
G1 X147.399 Y141.341 E27.58257
;WIDTH:0.45
G1 X147.74 Y141.163 E27.60107
G1 X148.073 Y140.781 E27.62544
;WIDTH:0.47262
G1 X148.229 Y140.406 E27.64612
G1 X148.255 Y140.156 E27.65892
;WIDTH:0.471738
G1 X148.255 Y42.978 E32.59632
G1 X148.151 Y42.508 E32.62078
;WIDTH:0.45
G1 X147.899 Y42.111 E32.6434
G1 X147.521 Y41.837 E32.66585
;WIDTH:0.471738
G1 X146.981 Y41.704 E32.69411
G1 X148.255 Y41.801 F7800
;WIDTH:0.612971
G1 F1200
G1 X148.189 Y41.819 E32.69879
G1 X148.14 Y41.77 E32.70353
G1 X148.158 Y41.704 E32.70821
G1 X148.224 Y41.686 E32.71289
G1 X148.273 Y41.735 E32.71763
G1 E30.71763 F2400
G92 E0
G1 X148.286 Y141.128 F7800
G1 E2 F2400
;WIDTH:0.454026
G1 F1200
G1 X147.974 Y141.472 E2.02257
G1 X147.703 Y141.628 E2.03777
G1 X148.064 Y141.868 E2.05884
G1 X148.286 Y142.127 E2.07542
G1 X148.286 Y141.321 E2.11459
G1 E.11459 F2400
G92 E0
G1 X148.273 Y158.23 F7800
G1 E2 F2400
;WIDTH:0.612972
G1 F1200
G1 X148.224 Y158.181 E2.00474
G1 X148.158 Y158.199 E2.00942
G1 X148.14 Y158.265 E2.0141
G1 X148.189 Y158.314 E2.01884
G1 X148.255 Y158.296 E2.02352
G1 E.02352 F2400
G92 E0
G1 X51.86 Y158.23 F7800
G1 E2 F2400
;WIDTH:0.612965
G1 F1200
G1 X51.811 Y158.181 E2.00474
G1 X51.745 Y158.199 E2.00942
G1 X51.727 Y158.265 E2.0141
G1 X51.776 Y158.314 E2.01884
G1 X51.842 Y158.296 E2.02352
;LAYER_CHANGE
;Z:0.95
;HEIGHT:0.3
G1 Z.95 F7800
G1 E.02352 F2400
G92 E0
G1 X148.963 Y159.004 F7800
G1 E2 F2400
;TYPE:Perimeter
;WIDTH:0.45
G1 F3600
G1 X51.037 Y159.004 E6.7099
G1 X51.037 Y40.996 E12.38567
G1 X148.963 Y40.996 E17.09557
G1 X148.963 Y158.944 E22.76846
G1 X149.348 Y159.389 F7800
G1 F3600
G1 X50.652 Y159.389 E27.51539
G1 X50.652 Y40.611 E33.2282
G1 X149.348 Y40.611 E37.97513
G1 X149.348 Y159.329 E43.68505
G1 X149.734 Y159.775 F7800
;TYPE:External perimeter
G1 F1800
G1 X50.266 Y159.775 E48.46912
G1 X50.266 Y40.225 E54.21906
G1 X149.734 Y40.225 E59.00313
G1 X149.734 Y159.715 E64.75018
G1 X149.351 Y159.66 F7800
G1 E62.75018 F2400
G92 E0
G1 X57.037 Y142.131 F7800
G1 E2 F2400
;TYPE:Perimeter
G1 F3600
G1 X146.991 Y142.131 E6.32647
G1 X147.33 Y142.193 E6.34305
G1 X147.57 Y142.324 E6.3562
G1 X147.842 Y142.642 E6.37633
G1 X147.955 Y143.095 E6.39879
G1 X147.955 Y157.032 E7.06911
G1 X147.876 Y157.415 E7.08792
G1 X147.673 Y157.714 E7.1053
G1 X147.374 Y157.917 E7.12268
G1 X146.991 Y157.996 E7.14149
G1 X53.009 Y157.996 E11.6617
G1 X52.626 Y157.917 E11.68051
G1 X52.327 Y157.714 E11.69789
G1 X52.124 Y157.415 E11.71527
G1 X52.045 Y157.032 E11.73408
G1 X52.045 Y42.968 E17.22016
G1 X52.124 Y42.585 E17.23897
G1 X52.327 Y42.286 E17.25635
G1 X52.626 Y42.083 E17.27373
G1 X53.009 Y42.004 E17.29254
G1 X146.991 Y42.004 E21.81275
G1 X147.374 Y42.083 E21.83156
G1 X147.673 Y42.286 E21.84894
G1 X147.876 Y42.585 E21.86632
G1 X147.955 Y42.968 E21.88513
G1 X147.955 Y140.16 E26.55973
G1 X147.941 Y140.326 E26.56774
G1 X147.842 Y140.613 E26.58234
G1 X147.57 Y140.931 E26.60247
G1 X147.33 Y141.062 E26.61562
G1 X146.991 Y141.124 E26.6322
G1 X57.037 Y141.124 E30.95867
G1 X57.037 Y142.071 E31.00422
G1 X56.652 Y142.517 F7800
G1 F3600
G1 X146.991 Y142.517 E35.34921
G1 X147.194 Y142.554 E35.35913
G1 X147.338 Y142.633 E35.36703
G1 X147.502 Y142.823 E35.3791
G1 X147.57 Y143.095 E35.39258
G1 X147.57 Y157.032 E36.0629
G1 X147.522 Y157.262 E36.0742
G1 X147.4 Y157.441 E36.08462
G1 X147.221 Y157.563 E36.09504
G1 X146.991 Y157.611 E36.10634
G1 X53.009 Y157.611 E40.62655
G1 X52.779 Y157.563 E40.63785
G1 X52.6 Y157.441 E40.64827
G1 X52.478 Y157.262 E40.65869
G1 X52.43 Y157.032 E40.66999
G1 X52.43 Y42.968 E46.15607
G1 X52.478 Y42.738 E46.16737
G1 X52.6 Y42.559 E46.17779
G1 X52.779 Y42.437 E46.18821
G1 X53.009 Y42.389 E46.19951
G1 X146.991 Y42.389 E50.71972
G1 X147.221 Y42.437 E50.73102
G1 X147.4 Y42.559 E50.74144
G1 X147.522 Y42.738 E50.75186
G1 X147.57 Y42.968 E50.76316
G1 X147.57 Y140.16 E55.43776
G1 X147.502 Y140.432 E55.45124
