; generated by PrusaSlicer 2.6.1+win64 on 2023-11-22 at 09:07:06 UTC

; 

; external perimeters extrusion width = 0.45mm
; perimeters extrusion width = 0.45mm
; infill extrusion width = 0.45mm
; solid infill extrusion width = 0.45mm
; top infill extrusion width = 0.40mm
; first layer extrusion width = 0.70mm

M104 S200 ; set temperature
;TYPE:Custom
G28 ; home all axes
G1 Z5 F5000 ; lift nozzle
M109 S200 ; set temperature and wait for it to be reached
G21 ; set units to millimeters
G90 ; use absolute coordinates
M82 ; use absolute distances for extrusion
G92 E0
; Filament gcode
M107
;LAYER_CHANGE
;Z:0.35
;HEIGHT:0.35
G1 Z.35 F7800
G1 E-2 F2400
G92 E0
G1 X32.02 Y31.36 F7800
G1 E2 F2400
;TYPE:Skirt/Brim
;WIDTH:0.7
G1 F1800
G1 X32.658 Y30.708 E2.08295
G1 X34.575 Y28.895 E2.32287
G1 X38.29 Y25.648 E2.77152
G1 X42.156 Y22.602 E3.21906
G1 X46.158 Y19.767 E3.66502
G1 X50.277 Y17.151 E4.10871
G1 X54.497 Y14.76 E4.54974
G1 X58.878 Y12.563 E4.99539
G1 X63.369 Y10.588 E5.4415
G1 X67.75 Y8.916 E5.86789
G1 X72.316 Y7.426 E6.30462
G1 X76.892 Y6.179 E6.73589
G1 X81.618 Y5.14 E7.17589
G1 X86.162 Y4.372 E7.59493
G1 X90.669 Y3.827 E8.00774
G1 X95.374 Y3.486 E8.43669
G1 X101.068 Y3.381 E8.95453
G1 X105.811 Y3.55 E9.38608
G1 X110.441 Y3.941 E9.80858
G1 X115.107 Y4.564 E10.23662
G1 X119.65 Y5.395 E10.65657
G1 X124.098 Y6.429 E11.07181
G1 X128.548 Y7.689 E11.49235
G1 X132.985 Y9.18 E11.91797
G1 X137.392 Y10.904 E12.34827
G1 X141.751 Y12.861 E12.78275
G1 X146.043 Y15.051 E13.22089
G1 X150.251 Y17.471 E13.66228
G1 X154.357 Y20.115 E14.10635
G1 X158.342 Y22.977 E14.55247
G1 X162.19 Y26.049 E15.00019
G1 X165.884 Y29.321 E15.4489
G1 X169.292 Y32.658 E15.88261
G1 X171.105 Y34.575 E16.12253
G1 X174.352 Y38.29 E16.57118
G1 X177.398 Y42.156 E17.01872
G1 X180.233 Y46.158 E17.46468
G1 X182.849 Y50.277 E17.90837
G1 X185.24 Y54.497 E18.3494
G1 X187.437 Y58.878 E18.79505
G1 X189.411 Y63.369 E19.24112
G1 X191.084 Y67.75 E19.66754
G1 X192.574 Y72.316 E20.10427
G1 X193.821 Y76.892 E20.53554
G1 X194.86 Y81.618 E20.97554
G1 X195.628 Y86.162 E21.39458
G1 X196.173 Y90.669 E21.80739
G1 X196.514 Y95.374 E22.23634
G1 X196.618 Y101.131 E22.75991
G1 X196.45 Y105.811 E23.18573
G1 X196.059 Y110.441 E23.60823
G1 X195.436 Y115.107 E24.03627
G1 X194.605 Y119.65 E24.45622
G1 X193.571 Y124.098 E24.87146
G1 X192.311 Y128.548 E25.292
G1 X190.82 Y132.986 E25.71771
G1 X189.096 Y137.392 E26.14792
G1 X187.139 Y141.751 E26.5824
G1 X184.949 Y146.043 E27.02054
G1 X182.529 Y150.251 E27.46193
G1 X179.885 Y154.357 E27.906
G1 X177.023 Y158.342 E28.35212
G1 X173.951 Y162.19 E28.79984
G1 X170.679 Y165.884 E29.24855
G1 X167.342 Y169.292 E29.68226
G1 X165.425 Y171.105 E29.92218
G1 X161.71 Y174.352 E30.37083
G1 X157.844 Y177.398 E30.81837
G1 X153.842 Y180.233 E31.26433
G1 X149.723 Y182.849 E31.70802
G1 X145.503 Y185.24 E32.14905
G1 X141.122 Y187.437 E32.5947
G1 X136.631 Y189.411 E33.04077
G1 X132.25 Y191.084 E33.46719
G1 X127.684 Y192.574 E33.90392
G1 X123.108 Y193.821 E34.33519
G1 X118.382 Y194.86 E34.77519
G1 X113.838 Y195.628 E35.19423
G1 X109.331 Y196.173 E35.60704
G1 X104.626 Y196.514 E36.03599
G1 X98.869 Y196.618 E36.55956
G1 X94.189 Y196.45 E36.98538
G1 X89.559 Y196.059 E37.40788
G1 X84.893 Y195.436 E37.83592
G1 X80.35 Y194.605 E38.25587
G1 X75.902 Y193.571 E38.67111
G1 X71.452 Y192.311 E39.09165
G1 X67.014 Y190.82 E39.51736
G1 X62.608 Y189.096 E39.94757
G1 X58.249 Y187.139 E40.38205
G1 X53.957 Y184.949 E40.82019
G1 X49.749 Y182.529 E41.26158
G1 X45.643 Y179.885 E41.70565
G1 X41.658 Y177.023 E42.15177
G1 X37.81 Y173.951 E42.59949
G1 X34.116 Y170.679 E43.0482
G1 X30.708 Y167.342 E43.48191
G1 X28.895 Y165.425 E43.72183
G1 X25.648 Y161.71 E44.17048
G1 X22.602 Y157.844 E44.61802
G1 X19.767 Y153.842 E45.06398
G1 X17.151 Y149.723 E45.50767
G1 X14.76 Y145.503 E45.9487
G1 X12.563 Y141.122 E46.39435
G1 X10.588 Y136.631 E46.84046
G1 X8.916 Y132.25 E47.26685
G1 X7.426 Y127.684 E47.70358
G1 X6.179 Y123.108 E48.13485
G1 X5.14 Y118.382 E48.57485
G1 X4.372 Y113.838 E48.99389
G1 X3.827 Y109.331 E49.4067
G1 X3.486 Y104.626 E49.83565
G1 X3.382 Y98.869 E50.35922
G1 X3.55 Y94.189 E50.78504
G1 X3.941 Y89.559 E51.20754
G1 X4.564 Y84.893 E51.63558
G1 X5.395 Y80.35 E52.05553
G1 X6.429 Y75.902 E52.47077
G1 X7.689 Y71.452 E52.89131
G1 X9.18 Y67.014 E53.31702
G1 X10.904 Y62.608 E53.74723
G1 X12.861 Y58.249 E54.18171
G1 X15.051 Y53.957 E54.61985
G1 X17.471 Y49.749 E55.06124
G1 X20.115 Y45.643 E55.50531
G1 X22.977 Y41.658 E55.95143
G1 X26.049 Y37.81 E56.39915
G1 X29.321 Y34.116 E56.84786
G1 X31.978 Y31.403 E57.19315
G1 E55.19315 F2400
G92 E0
G1 X97.857 Y11.626 F7800
G1 E2 F2400
;TYPE:Perimeter
;WIDTH:0.7
G1 F1800
G1 X100.005 Y11.6 E2.19533
G1 X103.183 Y11.657 E2.48435
G1 X105.244 Y11.756 E2.67197
G1 X107.352 Y11.906 E2.86413
G1 X109.479 Y12.11 E3.05842
G1 X111.613 Y12.366 E3.25385
G1 X113.748 Y12.675 E3.45001
G1 X115.88 Y13.038 E3.64666
G1 X117.908 Y13.433 E3.83453
G1 X119.941 Y13.878 E4.02377
G1 X121.976 Y14.375 E4.21425
G1 X124.013 Y14.924 E4.40608
G1 X126.048 Y15.525 E4.59902
G1 X128.081 Y16.178 E4.79318
G1 X130.108 Y16.885 E4.98838
G1 X132.129 Y17.645 E5.18471
G1 X134.141 Y18.459 E5.38207
G1 X136.142 Y19.326 E5.58036
G1 X138.129 Y20.246 E5.77946
G1 X140.102 Y21.219 E5.97949
G1 X142.057 Y22.246 E6.18029
G1 X143.994 Y23.325 E6.3819
G1 X145.909 Y24.456 E6.58413
G1 X147.8 Y25.638 E6.7869
G1 X149.666 Y26.871 E6.99027
G1 X151.505 Y28.154 E7.19416
G1 X153.315 Y29.487 E7.39856
G1 X155.092 Y30.867 E7.60314
G1 X156.837 Y32.294 E7.80811
G1 X158.547 Y33.767 E8.01333
G1 X160.22 Y35.284 E8.21868
G1 X161.854 Y36.844 E8.4241
G1 X163.448 Y38.446 E8.62959
G1 X165 Y40.087 E8.83497
G1 X166.509 Y41.767 E9.04031
G1 X167.974 Y43.483 E9.24547
G1 X169.392 Y45.234 E9.45035
G1 X170.764 Y47.018 E9.65499
G1 X172.087 Y48.833 E9.85922
G1 X173.361 Y50.677 E10.06302
G1 X174.585 Y52.548 E10.26632
G1 X175.758 Y54.444 E10.46905
G1 X176.879 Y56.363 E10.67113
G1 X177.948 Y58.303 E10.87254
G1 X178.973 Y60.277 E11.07479
G1 X179.962 Y62.309 E11.28028
G1 X180.895 Y64.356 E11.48484
G1 X181.772 Y66.416 E11.68842
G1 X182.592 Y68.487 E11.89096
G1 X183.356 Y70.567 E12.09245
G1 X184.064 Y72.653 E12.29276
G1 X184.716 Y74.744 E12.49192
G1 X185.312 Y76.838 E12.68989
G1 X185.853 Y78.931 E12.88646
G1 X186.339 Y81.023 E13.08175
G1 X186.772 Y83.111 E13.27565
G1 X187.151 Y85.194 E13.46817
G1 X187.479 Y87.269 E13.65919
G1 X187.754 Y89.335 E13.84871
G1 X187.98 Y91.39 E14.0367
G1 X188.162 Y93.512 E14.23036
G1 X188.295 Y95.694 E14.42914
G1 X188.374 Y97.857 E14.62595
G1 X188.398 Y100.37 E14.85447
G1 X188.343 Y103.183 E15.1103
G1 X188.244 Y105.244 E15.29792
G1 X188.094 Y107.352 E15.49008
G1 X187.89 Y109.479 E15.68437
G1 X187.634 Y111.613 E15.8798
G1 X187.325 Y113.748 E16.07596
G1 X186.962 Y115.88 E16.27261
G1 X186.567 Y117.908 E16.46048
G1 X186.122 Y119.941 E16.64972
G1 X185.625 Y121.976 E16.8402
G1 X185.076 Y124.013 E17.03203
G1 X184.475 Y126.048 E17.22497
G1 X183.822 Y128.081 E17.41913
G1 X183.115 Y130.108 E17.61433
G1 X182.355 Y132.129 E17.81066
G1 X181.541 Y134.141 E18.00802
G1 X180.674 Y136.142 E18.20631
G1 X179.754 Y138.129 E18.40541
G1 X178.781 Y140.102 E18.60544
G1 X177.754 Y142.057 E18.80624
G1 X176.675 Y143.994 E19.00785
G1 X175.544 Y145.909 E19.21008
G1 X174.362 Y147.8 E19.41285
G1 X173.129 Y149.666 E19.61622
G1 X171.846 Y151.505 E19.82011
G1 X170.513 Y153.315 E20.02451
G1 X169.133 Y155.092 E20.22909
G1 X167.706 Y156.837 E20.43406
G1 X166.233 Y158.547 E20.63928
G1 X164.716 Y160.22 E20.84463
G1 X163.156 Y161.854 E21.05005
G1 X161.554 Y163.448 E21.25554
G1 X159.913 Y165 E21.46092
G1 X158.233 Y166.509 E21.66626
G1 X156.517 Y167.974 E21.87142
G1 X154.766 Y169.392 E22.0763
G1 X152.982 Y170.764 E22.28094
G1 X151.167 Y172.087 E22.48517
G1 X149.323 Y173.361 E22.68897
G1 X147.452 Y174.585 E22.89227
G1 X145.556 Y175.758 E23.095
G1 X143.637 Y176.879 E23.29708
G1 X141.697 Y177.948 E23.49849
G1 X139.723 Y178.973 E23.70074
G1 X137.691 Y179.962 E23.90623
G1 X135.644 Y180.895 E24.11079
G1 X133.584 Y181.772 E24.31437
G1 X131.513 Y182.592 E24.51691
G1 X129.433 Y183.356 E24.7184
G1 X127.347 Y184.064 E24.91871
G1 X125.256 Y184.716 E25.11787
G1 X123.162 Y185.312 E25.31584
G1 X121.069 Y185.853 E25.51241
G1 X118.977 Y186.339 E25.7077
G1 X116.889 Y186.772 E25.9016
G1 X114.806 Y187.151 E26.09412
G1 X112.731 Y187.479 E26.28514
G1 X110.665 Y187.754 E26.47466
G1 X108.61 Y187.98 E26.66265
G1 X106.488 Y188.162 E26.85631
G1 X104.306 Y188.295 E27.05509
G1 X102.143 Y188.374 E27.2519
G1 X99.995 Y188.4 E27.44723
G1 X98.933 Y188.394 E27.5438
G1 X96.817 Y188.343 E27.73626
G1 X94.756 Y188.244 E27.92388
G1 X92.648 Y188.094 E28.11604
G1 X90.521 Y187.89 E28.31033
G1 X88.387 Y187.634 E28.50576
G1 X86.252 Y187.325 E28.70192
G1 X84.12 Y186.962 E28.89857
G1 X82.092 Y186.567 E29.08644
G1 X80.059 Y186.122 E29.27568
G1 X78.024 Y185.625 E29.46616
G1 X75.987 Y185.076 E29.65799
G1 X73.952 Y184.475 E29.85093
G1 X71.919 Y183.822 E30.04509
G1 X69.892 Y183.115 E30.24029
G1 X67.871 Y182.355 E30.43662
G1 X65.859 Y181.541 E30.63398
G1 X63.858 Y180.674 E30.83227
G1 X61.871 Y179.754 E31.03137
G1 X59.898 Y178.781 E31.2314
G1 X57.943 Y177.754 E31.4322
G1 X56.006 Y176.675 E31.63381
G1 X54.091 Y175.545 E31.836
G1 X52.2 Y174.362 E32.03882
G1 X50.334 Y173.129 E32.24219
G1 X48.495 Y171.846 E32.44608
G1 X46.685 Y170.513 E32.65048
G1 X44.908 Y169.133 E32.85506
G1 X43.163 Y167.706 E33.06003
G1 X41.453 Y166.233 E33.26525
G1 X39.78 Y164.716 E33.4706
G1 X38.146 Y163.156 E33.67602
G1 X36.552 Y161.554 E33.88151
G1 X35 Y159.913 E34.08689
G1 X33.491 Y158.233 E34.29223
G1 X32.026 Y156.517 E34.49739
G1 X30.608 Y154.766 E34.70227
G1 X29.236 Y152.982 E34.90691
G1 X27.913 Y151.167 E35.11114
G1 X26.639 Y149.323 E35.31494
G1 X25.415 Y147.452 E35.51824
G1 X24.242 Y145.556 E35.72097
G1 X23.121 Y143.637 E35.92305
G1 X22.052 Y141.697 E36.12446
G1 X21.027 Y139.723 E36.32671
G1 X20.038 Y137.691 E36.5322
G1 X19.105 Y135.644 E36.73676
G1 X18.228 Y133.584 E36.94034
G1 X17.408 Y131.513 E37.14288
G1 X16.644 Y129.433 E37.34437
G1 X15.936 Y127.347 E37.54468
G1 X15.284 Y125.256 E37.74384
G1 X14.688 Y123.162 E37.94181
G1 X14.147 Y121.069 E38.13838
G1 X13.661 Y118.977 E38.33367
G1 X13.228 Y116.889 E38.52757
G1 X12.849 Y114.806 E38.72009
G1 X12.521 Y112.731 E38.91111
G1 X12.246 Y110.665 E39.10063
G1 X12.02 Y108.61 E39.28862
G1 X11.838 Y106.488 E39.48228
G1 X11.705 Y104.306 E39.68106
G1 X11.626 Y102.143 E39.87787
G1 X11.6 Y99.995 E40.0732
G1 X11.606 Y98.933 E40.16977
G1 X11.657 Y96.817 E40.36223
G1 X11.756 Y94.756 E40.54985
G1 X11.906 Y92.648 E40.74201
G1 X12.11 Y90.521 E40.9363
G1 X12.366 Y88.387 E41.13173
G1 X12.675 Y86.252 E41.32789
G1 X13.038 Y84.12 E41.52454
G1 X13.433 Y82.092 E41.71241
G1 X13.878 Y80.059 E41.90165
G1 X14.375 Y78.024 E42.09213
G1 X14.924 Y75.987 E42.28396
G1 X15.525 Y73.952 E42.4769
G1 X16.178 Y71.919 E42.67106
G1 X16.885 Y69.892 E42.86626
G1 X17.645 Y67.871 E43.06259
G1 X18.459 Y65.859 E43.25995
G1 X19.326 Y63.858 E43.45824
G1 X20.246 Y61.871 E43.65734
G1 X21.219 Y59.898 E43.85737
G1 X22.246 Y57.943 E44.05817
G1 X23.325 Y56.006 E44.25978
G1 X24.456 Y54.091 E44.46201
G1 X25.638 Y52.2 E44.66478
G1 X26.871 Y50.334 E44.86815
G1 X28.154 Y48.495 E45.07204
G1 X29.487 Y46.685 E45.27644
G1 X30.867 Y44.908 E45.48102
G1 X32.294 Y43.163 E45.68599
G1 X33.767 Y41.453 E45.89121
G1 X35.284 Y39.78 E46.09656
G1 X36.844 Y38.146 E46.30198
G1 X38.446 Y36.552 E46.50747
G1 X40.087 Y35 E46.71285
G1 X41.767 Y33.491 E46.91819
G1 X43.483 Y32.026 E47.12335
G1 X45.234 Y30.608 E47.32823
G1 X47.018 Y29.236 E47.53287
G1 X48.833 Y27.913 E47.7371
G1 X50.677 Y26.639 E47.9409
G1 X52.548 Y25.415 E48.1442
G1 X54.444 Y24.242 E48.34693
G1 X56.363 Y23.121 E48.54901
G1 X58.303 Y22.052 E48.75042
G1 X60.277 Y21.027 E48.95267
G1 X62.309 Y20.038 E49.15816
G1 X64.356 Y19.105 E49.36272
G1 X66.416 Y18.228 E49.5663
G1 X68.487 Y17.408 E49.76884
G1 X70.567 Y16.644 E49.97033
G1 X72.653 Y15.936 E50.17064
G1 X74.744 Y15.284 E50.3698
G1 X76.838 Y14.688 E50.56777
G1 X78.931 Y14.147 E50.76434
G1 X81.023 Y13.661 E50.95963
G1 X83.111 Y13.228 E51.15353
G1 X85.194 Y12.849 E51.34605
G1 X87.269 Y12.521 E51.53707
G1 X89.335 Y12.246 E51.72659
G1 X91.39 Y12.02 E51.91458
G1 X93.512 Y11.838 E52.10824
G1 X95.694 Y11.705 E52.30702
G1 X97.797 Y11.628 E52.49837
G1 X97.842 Y11.001 F7800
G1 F1800
G1 X100.003 Y10.975 E52.69488
G1 X103.206 Y11.033 E52.98618
G1 X105.281 Y11.132 E53.17507
G1 X107.404 Y11.283 E53.3686
G1 X109.546 Y11.488 E53.56426
G1 X111.695 Y11.746 E53.76107
G1 X113.845 Y12.058 E53.95862
G1 X115.992 Y12.423 E54.15665
G1 X118.034 Y12.821 E54.34582
G1 X120.082 Y13.269 E54.53645
G1 X122.132 Y13.77 E54.72834
G1 X124.183 Y14.322 E54.92147
G1 X126.232 Y14.928 E55.11576
G1 X128.279 Y15.586 E55.31127
G1 X130.321 Y16.298 E55.50791
G1 X132.356 Y17.063 E55.70559
G1 X134.382 Y17.882 E55.9043
G1 X136.397 Y18.755 E56.10398
G1 X138.399 Y19.682 E56.30459
G1 X140.385 Y20.662 E56.50597
G1 X142.355 Y21.696 E56.70828
G1 X144.305 Y22.782 E56.91124
G1 X146.233 Y23.921 E57.11486
G1 X148.138 Y25.112 E57.31915
G1 X150.018 Y26.354 E57.52403
G1 X151.869 Y27.646 E57.72929
G1 X153.691 Y28.988 E57.93505
G1 X155.482 Y30.378 E58.1412
G1 X157.239 Y31.815 E58.34759
G1 X158.961 Y33.299 E58.55429
G1 X160.645 Y34.826 E58.76099
G1 X162.291 Y36.398 E58.96795
G1 X163.896 Y38.01 E59.17479
G1 X165.46 Y39.664 E59.38178
G1 X166.979 Y41.355 E59.58847
G1 X168.454 Y43.084 E59.79512
G1 X169.883 Y44.847 E60.00148
G1 X171.264 Y46.644 E60.20756
G1 X172.596 Y48.471 E60.41315
G1 X173.879 Y50.328 E60.61839
G1 X175.112 Y52.212 E60.82313
G1 X176.293 Y54.122 E61.02732
G1 X177.423 Y56.055 E61.23092
G1 X178.499 Y58.008 E61.43367
G1 X179.531 Y59.996 E61.63734
G1 X180.527 Y62.042 E61.84425
G1 X181.467 Y64.104 E62.05031
G1 X182.35 Y66.179 E62.25536
G1 X183.176 Y68.264 E62.45928
G1 X183.946 Y70.359 E62.66224
G1 X184.658 Y72.46 E62.86395
G1 X185.314 Y74.566 E63.06452
G1 X185.915 Y76.674 E63.26384
G1 X186.46 Y78.782 E63.46182
G1 X186.95 Y80.889 E63.65852
G1 X187.385 Y82.992 E63.85379
G1 X187.767 Y85.089 E64.04761
G1 X188.097 Y87.179 E64.24001
G1 X188.375 Y89.26 E64.43092
G1 X188.602 Y91.329 E64.62018
G1 X188.785 Y93.467 E64.8153
G1 X188.919 Y95.663 E65.01535
G1 X188.999 Y97.842 E65.21362
G1 X189.023 Y100.373 E65.44377
G1 X188.967 Y103.205 E65.70133
G1 X188.868 Y105.281 E65.89031
G1 X188.717 Y107.404 E66.08384
G1 X188.512 Y109.546 E66.2795
G1 X188.254 Y111.695 E66.47631
G1 X187.942 Y113.845 E66.67386
G1 X187.577 Y115.992 E66.87189
G1 X187.179 Y118.034 E67.06106
G1 X186.731 Y120.082 E67.25169
G1 X186.23 Y122.132 E67.44358
G1 X185.678 Y124.183 E67.63671
G1 X185.072 Y126.232 E67.831
G1 X184.414 Y128.279 E68.02651
G1 X183.702 Y130.321 E68.22315
G1 X182.937 Y132.356 E68.42083
G1 X182.118 Y134.382 E68.61954
G1 X181.245 Y136.397 E68.81922
G1 X180.318 Y138.399 E69.01983
G1 X179.338 Y140.385 E69.22121
G1 X178.304 Y142.355 E69.42352
G1 X177.218 Y144.305 E69.62648
G1 X176.079 Y146.233 E69.8301
G1 X174.888 Y148.138 E70.03439
G1 X173.646 Y150.018 E70.23927
G1 X172.354 Y151.869 E70.44453
G1 X171.012 Y153.691 E70.65029
G1 X169.622 Y155.482 E70.85644
G1 X168.185 Y157.239 E71.06283
G1 X166.701 Y158.961 E71.26953
G1 X165.174 Y160.645 E71.47623
G1 X163.602 Y162.291 E71.68319
G1 X161.99 Y163.896 E71.89003
G1 X160.336 Y165.46 E72.09702
G1 X158.645 Y166.979 E72.30371
G1 X156.916 Y168.454 E72.51036
G1 X155.153 Y169.883 E72.71672
G1 X153.356 Y171.264 E72.9228
G1 X151.529 Y172.596 E73.12839
G1 X149.672 Y173.879 E73.33363
G1 X147.788 Y175.112 E73.53837
G1 X145.878 Y176.293 E73.74256
G1 X143.945 Y177.423 E73.94616
G1 X141.992 Y178.499 E74.14891
G1 X140.004 Y179.531 E74.35258
G1 X137.958 Y180.527 E74.55949
G1 X135.896 Y181.467 E74.76555
G1 X133.821 Y182.35 E74.9706
G1 X131.736 Y183.176 E75.17452
G1 X129.641 Y183.946 E75.37748
G1 X127.54 Y184.658 E75.57919
G1 X125.434 Y185.314 E75.77976
G1 X123.326 Y185.915 E75.97908
G1 X121.218 Y186.46 E76.17706
G1 X119.111 Y186.95 E76.37376
G1 X117.008 Y187.385 E76.56903
G1 X114.911 Y187.767 E76.76285
G1 X112.821 Y188.097 E76.95525
G1 X110.74 Y188.375 E77.14616
G1 X108.671 Y188.602 E77.33542
G1 X106.533 Y188.785 E77.53054
G1 X104.337 Y188.919 E77.73059
G1 X102.158 Y188.999 E77.92886
G1 X99.997 Y189.025 E78.12537
